!!!!SEGMENT: pl-cz--iii-108--004_dankowski-adalbert--litaniae-es-speculum-iustitiae.krn
!!!cenid: 18xx:776
!!!COM: Dankowski, Adalbert
!!!COM-rismid: pe30000793
!!!CDT: ~1760-~1836
!!!CNT: Polish
!!!OPR: Litaniae Es
!!!OTL: Speculum iustitiae
!!!OMV: 004
!!!PDT:
!!!AGN: Sacred; Vespers
!!!SMS-siglum: PL-CZ
!!!SMS-shelfmark: III-108
!!!SMS-shelfwork: 001-004 M
!!!SMS-variant:
!!!SMS-altvar:
!!!NIFC-rismid: 300000106
!!!system-decoration: [(s1,s2,s3)][(s4,s5)][(s6,s7,s8,s9)][(s10,s11)]s12
**kern	**dynam	**kern	**dynam	**kern	**dynam	**kern	**kern	**kern	**text	**kern	**kern	**kern	**kern	**kern	**dynam	**kern	**dynam
*part12	*part12	*part11	*part11	*part10	*part10	*part9	*part8	*part7	*part7	*part6	*part5	*part4	*part3	*part2	*part2	*part1	*part1
*staff12	*	*staff11	*	*staff10	*	*staff9	*staff8	*staff7	*staff7	*staff6	*staff5	*staff4	*staff3	*staff2	*	*staff1	*
*Iorgan	*	*Ivioln	*	*Ivioln	*	*Iempty	*Itenor	*Ialto	*	*Ivox	*Iempty	*Iempty	*Iempty	*Iempty	*	*Iempty	*
*I"Organo	*	*I"Violino Secondo	*	*I"Violino Primo	*	*I"Baſso	*I"Tenore	*I"Alto	*	*I"Canto	*I"Cornu Secondo Ex Es	*I"Cornu Primo Ex Es	*I"Fagotho Obligatto	*I"Clarinetto Secondo Ex Es	*	*I"Clarinetto Primo Ex Es	*
*I'org	*	*I'vl II	*	*I'vl I	*	*I'B	*I'T	*I'A	*	*I'C	*I'cor II	*I'cor I	*I'fag	*I'cl II	*	*I'cl I	*
*clefF4	*	*clefG2	*	*clefG2	*	*clefF4	*clefC4	*clefC3	*	*clefC1	*clefG2	*clefG2	*clefF4	*clefG2	*	*clefG2	*
*	*	*	*	*	*	*	*	*	*	*	*ITrd5c9	*ITrd5c9	*	*ITrd1c2	*	*ITrd1c2	*
*k[b-e-]	*	*k[b-e-]	*	*k[b-e-]	*	*k[b-e-]	*k[b-e-]	*k[b-e-]	*	*k[b-e-]	*k[b-e-]	*k[b-e-]	*k[b-e-]	*k[b-e-]	*	*k[b-e-]	*
*B-:	*	*B-:	*	*B-:	*	*B-:	*B-:	*B-:	*	*B-:	*B-:	*B-:	*B-:	*B-:	*	*B-:	*
*M3/4	*	*M3/4	*	*M3/4	*	*M3/4	*M3/4	*M3/4	*	*M3/4	*M3/4	*M3/4	*M3/4	*M3/4	*	*M3/4	*
=1	=1	=1	=1	=1	=1	=1	=1	=1	=1	=1	=1	=1	=1	=1	=1	=1	=1
*2\right	*	*2\right	*	*2\right	*	*	*	*	*	*	*	*	*	*2\right	*	*2\right	*
!	!	!	!	!	!	!	!	!	!	!	!	!	!	!LO:TX:a:t=P:problem: w źródle partia błędnie podpisana [powinna być in B♭]	!	!LO:TX:a:t=P:problem: w źródle partia błędnie podpisana [powinna być in B♭]	!
!LO:TX:a:t=Solo	!	!LO:TX:a:t=Solo	!	!LO:TX:a:t=Solo	!	!	!	!	!	!	!	!	!	!LO:TX:a:t=Solo&colon;	!	!LO:TX:a:t=Solo	!
!LO:TX:a:B:t=Andan&colon;	!	!LO:TX:a:B:t=Andan&colon;	!	!LO:TX:a:B:t=andan&colon;	!	!LO:TX:a:B:t=Speculum Tacet	!LO:TX:a:B:t=Speculum Tacet	!LO:TX:a:B:t=Andante	!	!LO:TX:a:B:t=Speculum Tacet	!LO:TX:a:B:t=Speculum Tacet	!LO:TX:a:B:t=Speculum Tacet	!LO:TX:a:B:t=Speculum Tacet	!LO:TX:a:B:t=Andan&colon;	!	!LO:TX:a:B:t=Andan&colon;	!
8BB-/L	.	2d/	.	2b-\	.	2.ryy	2.ryy	0.r	.	2.ryy	2.ryy	2.ryy	2.ryy	2b-\	.	2dd\	.
8BB-/	.	.	.	.	.	.	.	.	.	.	.	.	.	.	.	.	.
8BB-/	.	.	.	.	.	.	.	.	.	.	.	.	.	.	.	.	.
8BB-/	.	.	.	.	.	.	.	.	.	.	.	.	.	.	.	.	.
8BB-/	.	8b-\L	.	8dd\L	.	.	.	.	.	.	.	.	.	4dd\	.	4ff\	.
8BB-/J	.	8dd\J	.	8ff\J	.	.	.	.	.	.	.	.	.	.	.	.	.
=2	=2	=2	=2	=2	=2	=2	=2	=2	=2	=2	=2	=2	=2	=2	=2	=2	=2
!LO:TX:a:t=P:problem:mixed beam	!	!	!	!	!	!	!	!	!	!	!	!	!	!	!	!	!
8F\L	.	(4dd\	.	(4ff\	.	2.ryy	2.ryy	.	.	2.ryy	2.ryy	2.ryy	2.ryy	(4dd\	.	(4ff\	.
8F\	.	.	.	.	.	.	.	.	.	.	.	.	.	.	.	.	.
8FF\	.	4cc\)	.	4ee-\)	.	.	.	.	.	.	.	.	.	4cc\)	.	4ee-\)	.
8FF\	.	.	.	.	.	.	.	.	.	.	.	.	.	.	.	.	.
8BB-\	.	4b-`\	.	4dd`\	.	.	.	.	.	.	.	.	.	4b-`\	.	4dd`\	.
8BB-\J	.	.	.	.	.	.	.	.	.	.	.	.	.	.	.	.	.
=3	=3	=3	=3	=3	=3	=3	=3	=3	=3	=3	=3	=3	=3	=3	=3	=3	=3
*tremolo	*	*	*	*	*	*	*	*	*	*	*	*	*	*	*	*	*
8BB-/L	.	(4.ee-\	.	(4.gg\	.	2.ryy	2.ryy	.	.	2.ryy	2.ryy	2.ryy	2.ryy	2.ee-\	.	2.gg\	.
8BB-/	.	.	.	.	.	.	.	.	.	.	.	.	.	.	.	.	.
8BB-/	.	.	.	.	.	.	.	.	.	.	.	.	.	.	.	.	.
8BB-/	.	8b-\L)	.	8ee-\L)	.	.	.	.	.	.	.	.	.	.	.	.	.
8BB-/	.	(8gg\	.	(8bb-\	.	.	.	.	.	.	.	.	.	.	.	.	.
8BB-/J	.	8ee-\J)	.	8gg\J)	.	.	.	.	.	.	.	.	.	.	.	.	.
*Xtremolo	*	*	*	*	*	*	*	*	*	*	*	*	*	*	*	*	*
=4	=4	=4	=4	=4	=4	=4	=4	=4	=4	=4	=4	=4	=4	=4	=4	=4	=4
4B-\	.	8ee-\L	.	8gg\L	.	2.ryy	2.ryy	.	.	2.ryy	2.ryy	2.ryy	2.ryy	4ee-\	.	4gg\	.
.	.	16dd\L	.	16ff\L	.	.	.	.	.	.	.	.	.	.	.	.	.
.	.	16ee-\JJ	.	16gg\JJ	.	.	.	.	.	.	.	.	.	.	.	.	.
4BB-/	.	8dd\L	.	8ff\L	.	.	.	.	.	.	.	.	.	4dd\	.	4ff\	.
.	.	8dd\J	.	8ff\J	.	.	.	.	.	.	.	.	.	.	.	.	.
4r	.	8dd\L	.	16bb-\LL	.	.	.	.	.	.	.	.	.	4r	.	4r	.
.	.	.	.	16ff\	.	.	.	.	.	.	.	.	.	.	.	.	.
.	.	16cc\L	.	16ee-\	.	.	.	.	.	.	.	.	.	.	.	.	.
.	.	16b-\JJ	.	16dd\JJ	.	.	.	.	.	.	.	.	.	.	.	.	.
=5	=5	=5	=5	=5	=5	=5	=5	=5	=5	=5	=5	=5	=5	=5	=5	=5	=5
*tremolo	*	*	*	*	*	*	*	*	*	*	*	*	*	*	*	*	*
8F\L	.	4.a/	.	(4.cc\	.	2.ryy	2.ryy	0.r	.	2.ryy	2.ryy	2.ryy	2.ryy	2.cc\	.	2.ee-\	.
8F\	.	.	.	.	.	.	.	.	.	.	.	.	.	.	.	.	.
8F\	.	.	.	.	.	.	.	.	.	.	.	.	.	.	.	.	.
8F\	.	16b-\LL	.	16dd\LL	.	.	.	.	.	.	.	.	.	.	.	.	.
.	.	16cc\JJ	.	16ee-\JJ)	.	.	.	.	.	.	.	.	.	.	.	.	.
8F\	.	8dd\L	.	8ff\L	.	.	.	.	.	.	.	.	.	.	.	.	.
8F\J	.	8cc\J	.	8ee-\J	.	.	.	.	.	.	.	.	.	.	.	.	.
=6	=6	=6	=6	=6	=6	=6	=6	=6	=6	=6	=6	=6	=6	=6	=6	=6	=6
8BB-/L	.	(4.b-\	.	(4.dd\	.	2.ryy	2.ryy	.	.	2.ryy	2.ryy	2.ryy	2.ryy	4.b-\	.	4.dd\	.
8BB-/	.	.	.	.	.	.	.	.	.	.	.	.	.	.	.	.	.
8BB-/	.	.	.	.	.	.	.	.	.	.	.	.	.	.	.	.	.
!	!	!	!	!LO:TX:a:t=P:problem: w źródle błędnie staccatissimo	!	!	!	!	!	!	!	!	!	!	!	!	!
8BB-/	.	8cc\)	.	8ee-`\)	.	.	.	.	.	.	.	.	.	8cc\	.	8ee-\	.
8BB-/	.	4dd`\	.	4ff\	.	.	.	.	.	.	.	.	.	4dd\	.	4ff\	.
8BB-/J	.	.	.	.	.	.	.	.	.	.	.	.	.	.	.	.	.
*Xtremolo	*	*	*	*	*	*	*	*	*	*	*	*	*	*	*	*	*
=7	=7	=7	=7	=7	=7	=7	=7	=7	=7	=7	=7	=7	=7	=7	=7	=7	=7
!LO:TX:a:t=P:problem:mixed beam	!	!	!	!	!	!	!	!	!	!	!	!	!	!	!	!	!
8E-\L	.	8ee-\L	.	8gg\L	.	2.ryy	2.ryy	.	.	2.ryy	2.ryy	2.ryy	2.ryy	4cc\	.	4ee-\	.
8E-\	.	16dd\L	.	16ff\L	.	.	.	.	.	.	.	.	.	.	.	.	.
.	.	16cc\JJ	.	16ee-\JJ	.	.	.	.	.	.	.	.	.	.	.	.	.
8F\	.	4b-\	.	4dd\	.	.	.	.	.	.	.	.	.	4b-\	.	4dd\	.
8F\	.	.	.	.	.	.	.	.	.	.	.	.	.	.	.	.	.
8FF\	.	4a\	.	4cc\	.	.	.	.	.	.	.	.	.	4a\	.	4cc\	.
8FF\J	.	.	.	.	.	.	.	.	.	.	.	.	.	.	.	.	.
=8	=8	=8	=8	=8	=8	=8	=8	=8	=8	=8	=8	=8	=8	=8	=8	=8	=8
4BB-/	.	(8.b-\L	.	(8.dd\L	.	2.ryy	2.ryy	.	.	2.ryy	2.ryy	2.ryy	2.ryy	4b-\	.	4dd\	.
.	.	16dd\Jk)	.	16ff\Jk)	.	.	.	.	.	.	.	.	.	.	.	.	.
4B-\	.	8b-/L	.	8dd\L	.	.	.	.	.	.	.	.	.	4b-\	.	4dd\	.
!	!	!LO:TX:a:t=P:problem: w źródle klamra łukowa z numerem&colon;global	!	!LO:TX:a:t=P:problem: w źródle klamra łukowa z numerem&colon;global	!	!	!	!	!	!	!	!	!	!	!	!	!
.	.	24b-/L	.	24bb-\L	.	.	.	.	.	.	.	.	.	.	.	.	.
.	.	24a/	.	24aa\	.	.	.	.	.	.	.	.	.	.	.	.	.
.	.	24g/JJ	.	24gg\JJ	.	.	.	.	.	.	.	.	.	.	.	.	.
4r	.	8f`/L	.	8ff`\L	.	.	.	.	.	.	.	.	.	4r	.	4r	.
.	.	8f`/J	.	8ff`\J	.	.	.	.	.	.	.	.	.	.	.	.	.
=9	=9	=9	=9	=9	=9	=9	=9	=9	=9	=9	=9	=9	=9	=9	=9	=9	=9
4A\	.	(8.f/L	.	(8.ff\L	.	2.ryy	2.ryy	0.r	.	2.ryy	2.ryy	2.ryy	2.ryy	4cc\	.	4dd\	.
.	.	16e-/Jk)	.	16ee-\Jk)	.	.	.	.	.	.	.	.	.	.	.	.	.
4A\	.	8c`/L	.	8cc`\L	.	.	.	.	.	.	.	.	.	4cc\	.	4dd\	.
.	.	(32f/LL	.	(32ff\LL	.	.	.	.	.	.	.	.	.	.	.	.	.
.	.	32e-/	.	32ee-\	.	.	.	.	.	.	.	.	.	.	.	.	.
.	.	32f/	.	32ff\	.	.	.	.	.	.	.	.	.	.	.	.	.
.	.	32g/JJJ)	.	32gg\JJJ)	.	.	.	.	.	.	.	.	.	.	.	.	.
4r	.	8f`/L	.	8ff`\L	.	.	.	.	.	.	.	.	.	4r	.	4r	.
.	.	8f`/J	.	8ff`\J	.	.	.	.	.	.	.	.	.	.	.	.	.
=10	=10	=10	=10	=10	=10	=10	=10	=10	=10	=10	=10	=10	=10	=10	=10	=10	=10
4B-\	.	(8.f/L	.	(8.ff\L	.	2.ryy	2.ryy	.	.	2.ryy	2.ryy	2.ryy	2.ryy	4b-\	.	4dd\	.
.	.	16e-/Jk)	.	16ee-\Jk)	.	.	.	.	.	.	.	.	.	.	.	.	.
4B-\	.	8d`/L	.	8dd`\L	.	.	.	.	.	.	.	.	.	4b-\	.	4dd\	.
.	.	(32f/LL	.	(32ff\LL	.	.	.	.	.	.	.	.	.	.	.	.	.
.	.	32e-/	.	32ee-\	.	.	.	.	.	.	.	.	.	.	.	.	.
.	.	32f/	.	32ff\	.	.	.	.	.	.	.	.	.	.	.	.	.
.	.	32g/JJJ)	.	32gg\JJJ)	.	.	.	.	.	.	.	.	.	.	.	.	.
4r	.	8f/L	.	8ff`\L	.	.	.	.	.	.	.	.	.	4r	.	4r	.
.	.	8f/J	.	8ff`\J	.	.	.	.	.	.	.	.	.	.	.	.	.
=11	=11	=11	=11	=11	=11	=11	=11	=11	=11	=11	=11	=11	=11	=11	=11	=11	=11
8E-\L	.	16dd\LL	.	16ff\LL	.	2.ryy	2.ryy	.	.	2.ryy	2.ryy	2.ryy	2.ryy	2.r	.	2.r	.
.	.	16cc\	.	16ee-\	.	.	.	.	.	.	.	.	.	.	.	.	.
8E-\	.	16b-\	.	16dd\	.	.	.	.	.	.	.	.	.	.	.	.	.
.	.	16cc\JJ	.	16ee-\JJ	.	.	.	.	.	.	.	.	.	.	.	.	.
8E-\	.	4cc\	.	4ee-\	.	.	.	.	.	.	.	.	.	.	.	.	.
8E-\	.	.	.	.	.	.	.	.	.	.	.	.	.	.	.	.	.
8En\	.	4b-\	.	4dd\	.	.	.	.	.	.	.	.	.	.	.	.	.
8E\J	.	.	.	.	.	.	.	.	.	.	.	.	.	.	.	.	.
=12	=12	=12	=12	=12	=12	=12	=12	=12	=12	=12	=12	=12	=12	=12	=12	=12	=12
!	!	!	!	!	!	!	!	!	!	!	!	!	!	!LO:TX:a:t=Soli	!	!LO:TX:a:t=Soli	!
4F\	.	8b-/L	.	8dd\L	.	2.ryy	2.ryy	.	.	2.ryy	2.ryy	2.ryy	2.ryy	4r	.	4r	.
.	.	16a/L	.	16cc\L	.	.	.	.	.	.	.	.	.	.	.	.	.
.	.	16b-/JJ	.	16dd\JJ	.	.	.	.	.	.	.	.	.	.	.	.	.
4FF/	.	4a/	.	4cc\	.	.	.	.	.	.	.	.	.	8r	.	8r	.
.	.	.	.	.	.	.	.	.	.	.	.	.	.	8F'/L	.	(16a\LL	.
.	.	.	.	.	.	.	.	.	.	.	.	.	.	.	.	16cc\JJ)	.
4r	.	4r	.	4r	.	.	.	.	.	.	.	.	.	8A'/	.	(16ff\LL	.
.	.	.	.	.	.	.	.	.	.	.	.	.	.	.	.	16gg\)	.
.	.	.	.	.	.	.	.	.	.	.	.	.	.	8G'/J	.	(16ff\	.
.	.	.	.	.	.	.	.	.	.	.	.	.	.	.	.	16ee-\JJ)	.
=13	=13	=13	=13	=13	=13	=13	=13	=13	=13	=13	=13	=13	=13	=13	=13	=13	=13
2.r	.	2.r	.	2.r	.	2.ryy	2.ryy	0.r	.	2.ryy	2.ryy	2.ryy	2.ryy	8B-'/L	.	(8.dd\L	.
.	.	.	.	.	.	.	.	.	.	.	.	.	.	(16d/L	.	.	.
.	.	.	.	.	.	.	.	.	.	.	.	.	.	16B-/JJ)	.	16ff\Jk)	.
.	.	.	.	.	.	.	.	.	.	.	.	.	.	(16F/LL	.	8b-`\L	.
.	.	.	.	.	.	.	.	.	.	.	.	.	.	16B-/)	.	.	.
.	.	.	.	.	.	.	.	.	.	.	.	.	.	(16d/	.	8b-`\	.
.	.	.	.	.	.	.	.	.	.	.	.	.	.	16B-/JJ)	.	.	.
.	.	.	.	.	.	.	.	.	.	.	.	.	.	(16F/LL	.	8dd`\	.
.	.	.	.	.	.	.	.	.	.	.	.	.	.	16B-/)	.	.	.
.	.	.	.	.	.	.	.	.	.	.	.	.	.	(16d/	.	8dd`\J	.
.	.	.	.	.	.	.	.	.	.	.	.	.	.	16B-/JJ)	.	.	.
=14	=14	=14	=14	=14	=14	=14	=14	=14	=14	=14	=14	=14	=14	=14	=14	=14	=14
2.r	.	2.r	.	2.r	.	2.ryy	2.ryy	.	.	2.ryy	2.ryy	2.ryy	2.ryy	16F/LL	.	(16cc\LL	.
.	.	.	.	.	.	.	.	.	.	.	.	.	.	16A/	.	16b-\	.
.	.	.	.	.	.	.	.	.	.	.	.	.	.	16c/	.	16cc\	.
.	.	.	.	.	.	.	.	.	.	.	.	.	.	16A/JJ	.	16dd\JJ)	.
.	.	.	.	.	.	.	.	.	.	.	.	.	.	16F/LL	.	(8.cc\L	.
.	.	.	.	.	.	.	.	.	.	.	.	.	.	16A/	.	.	.
.	.	.	.	.	.	.	.	.	.	.	.	.	.	16c/	.	.	.
.	.	.	.	.	.	.	.	.	.	.	.	.	.	16A/JJ	.	16a\K)	.
.	.	.	.	.	.	.	.	.	.	.	.	.	.	16F/LL	.	(8.ee-\	.
.	.	.	.	.	.	.	.	.	.	.	.	.	.	16A/	.	.	.
.	.	.	.	.	.	.	.	.	.	.	.	.	.	16c/	.	.	.
.	.	.	.	.	.	.	.	.	.	.	.	.	.	16A/JJ	.	16cc\Jk)	.
=15	=15	=15	=15	=15	=15	=15	=15	=15	=15	=15	=15	=15	=15	=15	=15	=15	=15
2.r	.	2.r	.	2.r	.	2.ryy	2.ryy	.	.	2.ryy	2.ryy	2.ryy	2.ryy	16F/LL	.	(8.dd\L	.
.	.	.	.	.	.	.	.	.	.	.	.	.	.	16B-/	.	.	.
.	.	.	.	.	.	.	.	.	.	.	.	.	.	16d/	.	.	.
.	.	.	.	.	.	.	.	.	.	.	.	.	.	16B-/JJ	.	16ff\Jk)	.
.	.	.	.	.	.	.	.	.	.	.	.	.	.	16F/LL	.	8b-`\L	.
.	.	.	.	.	.	.	.	.	.	.	.	.	.	16B-/	.	.	.
.	.	.	.	.	.	.	.	.	.	.	.	.	.	16d/	.	8b-`\J	.
.	.	.	.	.	.	.	.	.	.	.	.	.	.	16B-/JJ	.	.	.
.	.	.	.	.	.	.	.	.	.	.	.	.	.	16F/LL	.	8dd`\L	.
.	.	.	.	.	.	.	.	.	.	.	.	.	.	16B-/	.	.	.
.	.	.	.	.	.	.	.	.	.	.	.	.	.	16d/	.	8dd`\J	.
.	.	.	.	.	.	.	.	.	.	.	.	.	.	16B-/JJ	.	.	.
=16	=16	=16	=16	=16	=16	=16	=16	=16	=16	=16	=16	=16	=16	=16	=16	=16	=16
2.r	.	2.r	.	2.r	.	2.ryy	2.ryy	.	.	2.ryy	2.ryy	2.ryy	2.ryy	16F/LL	.	(16cc\LL	.
.	.	.	.	.	.	.	.	.	.	.	.	.	.	16A/	.	16b-\	.
.	.	.	.	.	.	.	.	.	.	.	.	.	.	16c/	.	16cc\	.
.	.	.	.	.	.	.	.	.	.	.	.	.	.	16A/JJ	.	16dd\JJ)	.
.	.	.	.	.	.	.	.	.	.	.	.	.	.	16F/LL	.	(8.cc\L	.
.	.	.	.	.	.	.	.	.	.	.	.	.	.	16A/	.	.	.
.	.	.	.	.	.	.	.	.	.	.	.	.	.	16c/	.	.	.
.	.	.	.	.	.	.	.	.	.	.	.	.	.	16A/JJ	.	16a\K)	.
.	.	.	.	.	.	.	.	.	.	.	.	.	.	16F/LL	.	(8.ee-\	.
.	.	.	.	.	.	.	.	.	.	.	.	.	.	16A/	.	.	.
.	.	.	.	.	.	.	.	.	.	.	.	.	.	16c/	.	.	.
.	.	.	.	.	.	.	.	.	.	.	.	.	.	16A/JJ	.	16cc\Jk)	.
=17	=17	=17	=17	=17	=17	=17	=17	=17	=17	=17	=17	=17	=17	=17	=17	=17	=17
!	!LO:DY:a	!	!LO:DY:a	!	!LO:DY:a	!	!	!	!	!	!	!	!	!LO:TX:a:t=P:problem:mixed beam	!	!	!
4r	p	4r	p	4r	p	2.ryy	2.ryy	0.r	.	2.ryy	2.ryy	2.ryy	2.ryy	8F\L	.	(8.dd\L	.
.	.	.	.	.	.	.	.	.	.	.	.	.	.	(16b-\L	.	.	.
.	.	.	.	.	.	.	.	.	.	.	.	.	.	16cc\JJ)	.	16ee-\Jk)	.
4BB-/	.	4d/	.	4f/	.	.	.	.	.	.	.	.	.	8dd`\L	.	8ff`\L	.
.	.	.	.	.	.	.	.	.	.	.	.	.	.	8dd`\	.	8ff`\J	.
4E-\	.	4e-/	.	4g/	.	.	.	.	.	.	.	.	.	8gg`\	.	(8bb-\L	.
.	.	.	.	.	.	.	.	.	.	.	.	.	.	8ee-`\J	.	8gg\J)	.
=18	=18	=18	=18	=18	=18	=18	=18	=18	=18	=18	=18	=18	=18	=18	=18	=18	=18
4F\	.	4B-/	.	4d/	.	2.ryy	2.ryy	.	.	2.ryy	2.ryy	2.ryy	2.ryy	(8.dd\L	.	(8.ff\L	.
.	.	.	.	.	.	.	.	.	.	.	.	.	.	16ee-\Jk)	.	16gg\Jk)	.
4FF/	.	4A/	.	4c/	.	.	.	.	.	.	.	.	.	(16dd\LL	.	(16ff\LL	.
.	.	.	.	.	.	.	.	.	.	.	.	.	.	16cc\)	.	16ee-\)	.
.	.	.	.	.	.	.	.	.	.	.	.	.	.	(16b-\	.	(16dd\	.
.	.	.	.	.	.	.	.	.	.	.	.	.	.	16cc\JJ)	.	16ee-\JJ)	.
4BB-/	.	4B-/	.	4d/	.	.	.	.	.	.	.	.	.	8b-'\L	.	(8dd\L	.
.	.	.	.	.	.	.	.	.	.	.	.	.	.	8dd'\J	.	8ff\J)	.
=19	=19	=19	=19	=19	=19	=19	=19	=19	=19	=19	=19	=19	=19	=19	=19	=19	=19
4E-\	.	4c/	.	4e-/	.	2.ryy	2.ryy	.	.	2.ryy	2.ryy	2.ryy	2.ryy	8ee-\L	.	8gg\L	.
.	.	.	.	.	.	.	.	.	.	.	.	.	.	16dd\L	.	16ff\L	.
.	.	.	.	.	.	.	.	.	.	.	.	.	.	16cc\JJ	.	16ee-\JJ	.
4F\	.	4B-/	.	4d/	.	.	.	.	.	.	.	.	.	4b-\	.	4dd\	.
4FF/	.	4A/	.	4c/	.	.	.	.	.	.	.	.	.	4a\	.	4cc\	.
=20	=20	=20	=20	=20	=20	=20	=20	=20	=20	=20	=20	=20	=20	=20	=20	=20	=20
!LO:TX:a:t=P:problem:mixed beam	!LO:DY:a	!	!LO:DY:a	!LO:TX:a:t=P:problem:mixed beam	!LO:DY:a	!	!	!	!	!	!	!	!	!	!	!	!
8BB-\L	f	8B-/L	f	8d\L	f	2.ryy	2.ryy	.	.	2.ryy	2.ryy	2.ryy	2.ryy	4b-\	.	4dd\	.
8BB-\	.	16d/L	.	16b-\L	.	.	.	.	.	.	.	.	.	.	.	.	.
.	.	16e-/JJ	.	16cc\JJ	.	.	.	.	.	.	.	.	.	.	.	.	.
!	!	!LO:TX:a:t=P:problem:mixed beam	!	!	!	!	!	!	!	!	!	!	!	!	!	!	!
8B-\	.	8f\L	.	8dd\L	.	.	.	.	.	.	.	.	.	4b-\	.	4dd\	.
8B-\	.	8f\	.	8dd\J	.	.	.	.	.	.	.	.	.	.	.	.	.
8B-\	.	8f\	.	16dd\LL	.	.	.	.	.	.	.	.	.	4r	.	4r	.
.	.	.	.	16ee-\	.	.	.	.	.	.	.	.	.	.	.	.	.
8B-\J	.	8dd\J	.	16ff\	.	.	.	.	.	.	.	.	.	.	.	.	.
.	.	.	.	16gg\JJ	.	.	.	.	.	.	.	.	.	.	.	.	.
=21	=21	=21	=21	=21	=21	=21	=21	=21	=21	=21	=21	=21	=21	=21	=21	=21	=21
!LO:TX:a:t=P:problem:mixed beam	!	!	!	!	!	!	!	!	!	!	!	!	!	!	!LO:DY:a	!	!
8A\L	.	(8cc\L	.	(8.ff\L	.	2.ryy	2.ryy	0.r	.	2.ryy	2.ryy	2.ryy	2.ryy	4r	f	4r	.
8A\	.	16dd\L	.	.	.	.	.	.	.	.	.	.	.	.	.	.	.
.	.	16cc\JJ)	.	16ee-\Jk)	.	.	.	.	.	.	.	.	.	.	.	.	.
!	!	!	!	!	!	!	!	!	!	!	!	!	!	!	!	!	!LO:DY:a
8B-\	.	8b-\L	.	16dd\LL	.	.	.	.	.	.	.	.	.	4r	.	4r	f
.	.	.	.	16ff\	.	.	.	.	.	.	.	.	.	.	.	.	.
8B-\	.	(16gg\L	.	(16bb-\	.	.	.	.	.	.	.	.	.	.	.	.	.
.	.	16ff\JJ)	.	16aa\JJ)	.	.	.	.	.	.	.	.	.	.	.	.	.
8BB-\	.	(16ee-\LL	.	(16gg\LL	.	.	.	.	.	.	.	.	.	4dd\	.	4ff\	.
.	.	16dd\)	.	16ff\)	.	.	.	.	.	.	.	.	.	.	.	.	.
8BB-\J	.	(16cc\	.	(16ee-\	.	.	.	.	.	.	.	.	.	.	.	.	.
.	.	16b-\JJ)	.	16dd\JJ)	.	.	.	.	.	.	.	.	.	.	.	.	.
=22	=22	=22	=22	=22	=22	=22	=22	=22	=22	=22	=22	=22	=22	=22	=22	=22	=22
!LO:TX:a:t=P:problem:mixed beam	!	!	!	!	!	!	!	!	!	!	!	!	!	!	!	!	!
8E-\L	.	8g/L	.	16cc\LL	.	2.ryy	2.ryy	.	.	2.ryy	2.ryy	2.ryy	2.ryy	4cc\	.	8gg\L	.
.	.	.	.	16dd\	.	.	.	.	.	.	.	.	.	.	.	.	.
8E-\	.	8e-/J	.	16ee-\	.	.	.	.	.	.	.	.	.	.	.	8ee-\J	.
.	.	.	.	16cc\JJ	.	.	.	.	.	.	.	.	.	.	.	.	.
8F\	.	4d/	.	4b-\	.	.	.	.	.	.	.	.	.	4b-\	.	4dd\	.
8F\	.	.	.	.	.	.	.	.	.	.	.	.	.	.	.	.	.
8FF\	.	4c/	.	4a\	.	.	.	.	.	.	.	.	.	4a\	.	4cc\	.
8FF\J	.	.	.	.	.	.	.	.	.	.	.	.	.	.	.	.	.
=23	=23	=23	=23	=23	=23	=23	=23	=23	=23	=23	=23	=23	=23	=23	=23	=23	=23
!	!LO:DY:a	!	!LO:DY:a	!	!LO:DY:a	!	!	!	!	!	!	!	!	!LO:TX:a:t=Soli	!	!LO:TX:a:t=Soli	!
4BB-/	p	(8.B-/L	p	(8.d/L	p	2.ryy	2.ryy	.	.	2.ryy	2.ryy	2.ryy	2.ryy	(8.b-\L	.	(8.dd\L	.
.	.	16d/K)	.	16f/K)	.	.	.	.	.	.	.	.	.	16dd\K)	.	16ff\K)	.
4B-\	.	(8.B-/	.	(8.d/	.	.	.	.	.	.	.	.	.	(8.b-\	.	(8.dd\	.
.	.	16d/Jk)	.	16f/Jk)	.	.	.	.	.	.	.	.	.	16dd\Jk)	.	16ff\Jk)	.
4F\	.	(16d/LL	.	(16f/LL	.	.	.	.	.	.	.	.	.	(16dd\LL	.	(16ff\LL	.
.	.	16c/)	.	16e-/)	.	.	.	.	.	.	.	.	.	16cc\)	.	16ee-\)	.
.	.	(16B-/	.	(16d/	.	.	.	.	.	.	.	.	.	(16b-\	.	(16dd\	.
.	.	16A/JJ)	.	16c/JJ)	.	.	.	.	.	.	.	.	.	16a\JJ)	.	16cc\JJ)	.
=24	=24	=24	=24	=24	=24	=24	=24	=24	=24	=24	=24	=24	=24	=24	=24	=24	=24
4BB-/	.	(8.B-/L	.	(8.d/L	.	2.ryy	2.ryy	.	.	2.ryy	2.ryy	2.ryy	2.ryy	(8.b-\L	.	(8.dd\L	.
.	.	16d/K)	.	16f/K)	.	.	.	.	.	.	.	.	.	16dd\K)	.	16ff\K)	.
4B-\	.	(8.B-/	.	(8.d/	.	.	.	.	.	.	.	.	.	(8.b-\	.	(8.dd\	.
.	.	16d/Jk)	.	16f/Jk)	.	.	.	.	.	.	.	.	.	16dd\Jk)	.	16ff\Jk)	.
4F\	.	(16d/LL	.	(16f/LL	.	.	.	.	.	.	.	.	.	(16dd\LL	.	(16ff\LL	.
.	.	16c/)	.	16e-/)	.	.	.	.	.	.	.	.	.	16cc\)	.	16ee-\)	.
.	.	(16B-/	.	(16d/	.	.	.	.	.	.	.	.	.	(16b-\	.	(16dd\	.
.	.	16A/JJ)	.	16c/JJ)	.	.	.	.	.	.	.	.	.	16a\JJ)	.	16cc\JJ)	.
=25	=25	=25	=25	=25	=25	=25	=25	=25	=25	=25	=25	=25	=25	=25	=25	=25	=25
!LO:TX:a:t=P:problem:mixed beam	!	!	!	!	!	!	!	!	!	!	!	!	!	!	!	!	!
8BB-\L	.	(4A/	.	(4c/	.	2.ryy	2.ryy	2.r	.	2.ryy	2.ryy	2.ryy	2.ryy	(4a\	.	(4cc\	.
8B-\J	.	.	.	.	.	.	.	.	.	.	.	.	.	.	.	.	.
4BB-/	.	4B-/)	.	4d/)	.	.	.	.	.	.	.	.	.	4b-\)	.	4dd\)	.
!	!	!LO:TX:b:t=Verte	!	!	!	!	!	!	!	!	!	!	!	!	!	!	!
4r	.	4r	.	4r	.	.	.	.	.	.	.	.	.	4r	.	4r	.
=26	=26	=26	=26	=26	=26	=26	=26	=26	=26	=26	=26	=26	=26	=26	=26	=26	=26
*	*	*	*	*	*	*	*	*2\right	*	*	*	*	*	*	*	*	*
!	!	!	!	!	!	!	!	!LO:TX:a:t=P:problem: w źródle dodatkowe teksty słowne nieuwzględnione [zgodnie z RISM&colon; "W głosach wokalnych późniejszą ręką nad i pod oryginalnym tekstem dopisane&colon; czerwonym atramentem łaciński tekst litanii do św. Jana Nepomucena, czarnym atramentem łaciński tekst litanii do św. Pawła Pustelnika"]	!	!	!	!	!	!	!	!	!
!	!LO:DY:a	!	!	!	!LO:DY:a	!	!	!LO:TX:a:t=Solo	!	!	!	!	!	!	!	!	!
8BB-/L	p	2d/	.	2b-\	p	2.ryy	2.ryy	2B-/	Spe-	2.ryy	2.ryy	2.ryy	2.ryy	2.r	.	2.r	.
8BB-/	.	.	.	.	.	.	.	.	.	.	.	.	.	.	.	.	.
8BB-/	.	.	.	.	.	.	.	.	.	.	.	.	.	.	.	.	.
8BB-/	.	.	.	.	.	.	.	.	.	.	.	.	.	.	.	.	.
8BB-/	.	8b-\L	.	8dd\L	.	.	.	8d\L	.	.	.	.	.	.	.	.	.
8BB-/J	.	8dd\J	.	8ff\J	.	.	.	8f\J	.	.	.	.	.	.	.	.	.
=27	=27	=27	=27	=27	=27	=27	=27	=27	=27	=27	=27	=27	=27	=27	=27	=27	=27
!LO:TX:a:t=P:problem:mixed beam	!	!	!	!	!	!	!	!	!	!	!	!	!	!	!	!	!
8F\L	.	4dd\	.	4ff\	.	2.ryy	2.ryy	4f\	.	2.ryy	2.ryy	2.ryy	2.ryy	2.r	.	2.r	.
8F\	.	.	.	.	.	.	.	.	.	.	.	.	.	.	.	.	.
8FF\	.	4cc\	.	4ee-\	.	.	.	4e-\	-cu-	.	.	.	.	.	.	.	.
8FF\	.	.	.	.	.	.	.	.	.	.	.	.	.	.	.	.	.
8BB-\	.	4b-\	.	4dd\	.	.	.	4d\	-lum	.	.	.	.	.	.	.	.
8BB-\J	.	.	.	.	.	.	.	.	.	.	.	.	.	.	.	.	.
=28	=28	=28	=28	=28	=28	=28	=28	=28	=28	=28	=28	=28	=28	=28	=28	=28	=28
8BB-/L	.	(4.ee-\	.	4.gg\	.	2.ryy	2.ryy	4.g\	Juſ-	2.ryy	2.ryy	2.ryy	2.ryy	2.r	.	2.r	.
8BB-/	.	.	.	.	.	.	.	.	.	.	.	.	.	.	.	.	.
8BB-/	.	.	.	.	.	.	.	.	.	.	.	.	.	.	.	.	.
8BB-/	.	8b-\L)	.	8ee-\L	.	.	.	8e-\L	.	.	.	.	.	.	.	.	.
8BB-/	.	(8gg\	.	8bb-\	.	.	.	8b-\	.	.	.	.	.	.	.	.	.
8BB-/J	.	8ee-\J)	.	8gg\J	.	.	.	8g\J	.	.	.	.	.	.	.	.	.
=29	=29	=29	=29	=29	=29	=29	=29	=29	=29	=29	=29	=29	=29	=29	=29	=29	=29
4BB-/	.	8ee-\L	.	8gg\L	.	2.ryy	2.ryy	8g\	-ti-	2.ryy	2.ryy	2.ryy	2.ryy	2.r	.	2.r	.
.	.	16dd\L	.	16ff\L	.	.	.	16f\LL	-ti-	.	.	.	.	.	.	.	.
.	.	16ee-\JJ	.	16gg\JJ	.	.	.	16g\JJ	.	.	.	.	.	.	.	.	.
4BB-/	.	8dd\L	.	8ff\L	.	.	.	4f\	-a	.	.	.	.	.	.	.	.
.	.	8dd\J	.	8ff\J	.	.	.	.	.	.	.	.	.	.	.	.	.
4r	.	8dd\L	.	16bb-\LL	.	.	.	4r	.	.	.	.	.	.	.	.	.
.	.	.	.	16ff\	.	.	.	.	.	.	.	.	.	.	.	.	.
.	.	16cc\L	.	16ee-\	.	.	.	.	.	.	.	.	.	.	.	.	.
.	.	16b-\JJ	.	16dd\JJ	.	.	.	.	.	.	.	.	.	.	.	.	.
=30	=30	=30	=30	=30	=30	=30	=30	=30	=30	=30	=30	=30	=30	=30	=30	=30	=30
8F\L	.	8a/L	.	4.cc\	.	2.ryy	2.ryy	4.c\	ſe-	2.ryy	2.ryy	2.ryy	2.ryy	2.r	.	2.r	.
8F\	.	8a/	.	.	.	.	.	.	.	.	.	.	.	.	.	.	.
8F\	.	8a/	.	.	.	.	.	.	.	.	.	.	.	.	.	.	.
8F\	.	8a/	.	16dd\LL	.	.	.	16d\LL	.	.	.	.	.	.	.	.	.
.	.	.	.	16ee-\JJ	.	.	.	16e-\JJ	.	.	.	.	.	.	.	.	.
8F\	.	8a/	.	8ff\L	.	.	.	8f\L	.	.	.	.	.	.	.	.	.
8F\J	.	8a/J	.	8ee-\J	.	.	.	8e-\J	.	.	.	.	.	.	.	.	.
=31	=31	=31	=31	=31	=31	=31	=31	=31	=31	=31	=31	=31	=31	=31	=31	=31	=31
8BB-/L	.	(4.b-\	.	4.dd\	.	2.ryy	2.ryy	4.d\	.	2.ryy	2.ryy	2.ryy	2.ryy	2.r	.	2.r	.
8BB-/	.	.	.	.	.	.	.	.	.	.	.	.	.	.	.	.	.
8BB-/	.	.	.	.	.	.	.	.	.	.	.	.	.	.	.	.	.
8BB-/	.	8cc\)	.	8ee-\	.	.	.	8e-\	.	.	.	.	.	.	.	.	.
8BB-/	.	4dd`\	.	4ff\	.	.	.	4f\	-des	.	.	.	.	.	.	.	.
8BB-/J	.	.	.	.	.	.	.	.	.	.	.	.	.	.	.	.	.
=32	=32	=32	=32	=32	=32	=32	=32	=32	=32	=32	=32	=32	=32	=32	=32	=32	=32
!LO:TX:a:t=P:problem:mixed beam	!	!	!	!	!	!	!	!	!	!	!	!	!	!	!	!	!
8E-\L	.	4cc\	.	8gg\L	.	2.ryy	2.ryy	8g\L	ſa-	2.ryy	2.ryy	2.ryy	2.ryy	2.r	.	2.r	.
8E-\	.	.	.	16ff\L	.	.	.	16f\L	.	.	.	.	.	.	.	.	.
.	.	.	.	16ee-\JJ	.	.	.	16e-\JJ	.	.	.	.	.	.	.	.	.
8F\	.	4b-\	.	4dd\	.	.	.	4d\	.	.	.	.	.	.	.	.	.
8F\	.	.	.	.	.	.	.	.	.	.	.	.	.	.	.	.	.
8FF\	.	4a\	.	4cc\	.	.	.	4c\	-pien-	.	.	.	.	.	.	.	.
8FF\J	.	.	.	.	.	.	.	.	.	.	.	.	.	.	.	.	.
=33	=33	=33	=33	=33	=33	=33	=33	=33	=33	=33	=33	=33	=33	=33	=33	=33	=33
4BB-/	.	(8.b-\L	.	(8.dd\L	.	2.ryy	2.ryy	8d\	-ti-	2.ryy	2.ryy	2.ryy	2.ryy	2.r	.	2.r	.
.	.	.	.	.	.	.	.	8f\	.	.	.	.	.	.	.	.	.
.	.	16dd\Jk)	.	16ff\Jk)	.	.	.	.	.	.	.	.	.	.	.	.	.
4BB-/	.	8b-/L	.	8dd\L	.	.	.	4d\	-a	.	.	.	.	.	.	.	.
.	.	24b-/L	.	24bb-\L	.	.	.	.	.	.	.	.	.	.	.	.	.
.	.	24a/	.	24aa\	.	.	.	.	.	.	.	.	.	.	.	.	.
.	.	24g/JJ	.	24gg\JJ	.	.	.	.	.	.	.	.	.	.	.	.	.
4r	.	8f`/L	.	8ff`\L	.	.	.	4r	.	.	.	.	.	.	.	.	.
.	.	8f`/J	.	8ff`\J	.	.	.	.	.	.	.	.	.	.	.	.	.
=34	=34	=34	=34	=34	=34	=34	=34	=34	=34	=34	=34	=34	=34	=34	=34	=34	=34
4AA/	.	(8.f/L	.	(8.ff\L	.	2.ryy	2.ryy	8.f\L	o-	2.ryy	2.ryy	2.ryy	2.ryy	2.r	.	2.r	.
.	.	16e-/Jk)	.	16ee-\Jk)	.	.	.	16e-\Jk	.	.	.	.	.	.	.	.	.
4AA/	.	8c`/L	.	8dd`\L	.	.	.	4d\	-ra	.	.	.	.	.	.	.	.
.	.	(32f/LL	.	(32ff\LL	.	.	.	.	.	.	.	.	.	.	.	.	.
.	.	32e-/	.	32ee-\	.	.	.	.	.	.	.	.	.	.	.	.	.
.	.	32f/	.	32ff\	.	.	.	.	.	.	.	.	.	.	.	.	.
.	.	32g/JJJ)	.	32gg\JJJ)	.	.	.	.	.	.	.	.	.	.	.	.	.
4r	.	8f`/L	.	8ff`\L	.	.	.	4r	.	.	.	.	.	.	.	.	.
.	.	8f`/J	.	8ff`\J	.	.	.	.	.	.	.	.	.	.	.	.	.
=35	=35	=35	=35	=35	=35	=35	=35	=35	=35	=35	=35	=35	=35	=35	=35	=35	=35
4BB-/	.	(8.f/L	.	(8.ff\L	.	2.ryy	2.ryy	8.f\L	{o-	2.ryy	2.ryy	2.ryy	2.ryy	2.r	.	2.r	.
.	.	16e-/Jk)	.	16ee-\Jk)	.	.	.	16e-\Jk	.	.	.	.	.	.	.	.	.
4BB-/	.	8d`/L	.	8dd`\L	.	.	.	4d\	-ra}	.	.	.	.	.	.	.	.
.	.	(32f/LL	.	(32ff\LL	.	.	.	.	.	.	.	.	.	.	.	.	.
.	.	32e-/	.	32ee-\	.	.	.	.	.	.	.	.	.	.	.	.	.
.	.	32f/	.	32ff\	.	.	.	.	.	.	.	.	.	.	.	.	.
.	.	32g/JJJ)	.	32gg\JJJ)	.	.	.	.	.	.	.	.	.	.	.	.	.
4r	.	8f`/L	.	8ff`\L	.	.	.	4r	.	.	.	.	.	.	.	.	.
.	.	8f`/J	.	8ff`\J	.	.	.	.	.	.	.	.	.	.	.	.	.
=36	=36	=36	=36	=36	=36	=36	=36	=36	=36	=36	=36	=36	=36	=36	=36	=36	=36
8E-\L	.	(16cc\LL	.	16ee-\LL	.	2.ryy	2.ryy	16e-\LL	o-	2.ryy	2.ryy	2.ryy	2.ryy	2.r	.	2.r	.
.	.	16b-\	.	16dd\	.	.	.	16d\	.	.	.	.	.	.	.	.	.
8E-\	.	16cc\	.	16ee-\	.	.	.	16e-\	.	.	.	.	.	.	.	.	.
.	.	16dd\JJ)	.	16ff\JJ	.	.	.	16f\JJ	.	.	.	.	.	.	.	.	.
8E-\	.	4cc\	.	4ee-\	.	.	.	4e-\	-ra	.	.	.	.	.	.	.	.
8E-\	.	.	.	.	.	.	.	.	.	.	.	.	.	.	.	.	.
8En\	.	4b-\	.	4dd\	.	.	.	4d\	pro	.	.	.	.	.	.	.	.
8E\J	.	.	.	.	.	.	.	.	.	.	.	.	.	.	.	.	.
=37	=37	=37	=37	=37	=37	=37	=37	=37	=37	=37	=37	=37	=37	=37	=37	=37	=37
4F\	.	8b-\L	.	8dd\L	.	2.ryy	2.ryy	8d\L	no-	2.ryy	2.ryy	2.ryy	2.ryy	2.r	.	2.r	.
.	.	16a\L	.	16cc\L	.	.	.	16c\L	.	.	.	.	.	.	.	.	.
.	.	16b-\JJ	.	16dd\JJ	.	.	.	16d\JJ	.	.	.	.	.	.	.	.	.
!LO:TX:a:t=P:problem:mixed beam	!	!	!	!	!	!	!	!	!	!	!	!	!	!	!	!	!
8FF\L	.	4a/	.	4cc\	.	.	.	4c\	-bis	.	.	.	.	.	.	.	.
8F\	.	.	.	.	.	.	.	.	.	.	.	.	.	.	.	.	.
8C\	.	4r	.	4r	.	.	.	4r	.	.	.	.	.	.	.	.	.
8AA\J	.	.	.	.	.	.	.	.	.	.	.	.	.	.	.	.	.
=38	=38	=38	=38	=38	=38	=38	=38	=38	=38	=38	=38	=38	=38	=38	=38	=38	=38
!LO:TX:a:t=P:problem:mixed beam	!	!	!	!	!	!	!	!	!	!	!	!	!	!	!	!	!
8FF\L	.	8a/L	.	8cc\L	.	2.ryy	2.ryy	2c\	Cau-	2.ryy	2.ryy	2.ryy	2.ryy	2.r	.	2.r	.
8F\	.	8a/	.	8cc\	.	.	.	.	.	.	.	.	.	.	.	.	.
8F\	.	8a/	.	8cc\	.	.	.	.	.	.	.	.	.	.	.	.	.
8F\	.	8a/	.	8cc\	.	.	.	.	.	.	.	.	.	.	.	.	.
8F\	.	8a/	.	8cc\	.	.	.	16f\LL	.	.	.	.	.	.	.	.	.
.	.	.	.	.	.	.	.	16e-\JJ	.	.	.	.	.	.	.	.	.
8F\J	.	8a/J	.	8cc\J	.	.	.	16d\LL	-ſa	.	.	.	.	.	.	.	.
.	.	.	.	.	.	.	.	16c\JJ	.	.	.	.	.	.	.	.	.
=39	=39	=39	=39	=39	=39	=39	=39	=39	=39	=39	=39	=39	=39	=39	=39	=39	=39
*tremolo	*	*tremolo	*	*tremolo	*	*	*	*	*	*	*	*	*	*	*	*	*
8F\L	.	8b-/L	.	8dd\L	.	2.ryy	2.ryy	8c\L	No-	2.ryy	2.ryy	2.ryy	2.ryy	2.r	.	2.r	.
8F\	.	8b-/	.	8dd\	.	.	.	8d\J	.	.	.	.	.	.	.	.	.
8F\	.	8b-/	.	8dd\	.	.	.	4d\	-ſtrae	.	.	.	.	.	.	.	.
8F\	.	8b-/	.	8dd\	.	.	.	.	.	.	.	.	.	.	.	.	.
8F\	.	8b-/	.	8dd\	.	.	.	4r	.	.	.	.	.	.	.	.	.
8F\J	.	8b-/J	.	8dd\J	.	.	.	.	.	.	.	.	.	.	.	.	.
=40	=40	=40	=40	=40	=40	=40	=40	=40	=40	=40	=40	=40	=40	=40	=40	=40	=40
8F\L	.	8g/L	.	8een\L	.	2.ryy	2.ryy	4.en\	Cau-	2.ryy	2.ryy	2.ryy	2.ryy	2.r	.	2.r	.
8F\	.	8g/	.	8een\	.	.	.	.	.	.	.	.	.	.	.	.	.
8F\	.	8g/	.	8een\	.	.	.	.	.	.	.	.	.	.	.	.	.
8F\	.	8g/	.	8een\	.	.	.	16f\LL	.	.	.	.	.	.	.	.	.
.	.	.	.	.	.	.	.	16g\JJ	.	.	.	.	.	.	.	.	.
8F\	.	8g/	.	8een\	.	.	.	16f\LL	.	.	.	.	.	.	.	.	.
.	.	.	.	.	.	.	.	16e\JJ	.	.	.	.	.	.	.	.	.
8F\J	.	8g/J	.	8een\J	.	.	.	16d\LL	-ſa	.	.	.	.	.	.	.	.
.	.	.	.	.	.	.	.	16e\JJ	.	.	.	.	.	.	.	.	.
=41	=41	=41	=41	=41	=41	=41	=41	=41	=41	=41	=41	=41	=41	=41	=41	=41	=41
!	!	!	!	!	!	!	!	!LO:TX:a:t=SIC&colon;s=8en	!	!	!	!	!	!	!	!	!
8F\L	.	8a/L	.	8ff\L	.	2.ryy	2.ryy	8e-\L	No-	2.ryy	2.ryy	2.ryy	2.ryy	2.r	.	2.r	.
8F\	.	8a/	.	8ff\	.	.	.	8f\J	.	.	.	.	.	.	.	.	.
8F\	.	8a/	.	8ff\	.	.	.	4f\	-ſtrae	.	.	.	.	.	.	.	.
8F\	.	8a/	.	8ff\	.	.	.	.	.	.	.	.	.	.	.	.	.
8F\	.	8a/	.	8ff\	.	.	.	4r	.	.	.	.	.	.	.	.	.
8F\J	.	8a/J	.	8ff\J	.	.	.	.	.	.	.	.	.	.	.	.	.
=42	=42	=42	=42	=42	=42	=42	=42	=42	=42	=42	=42	=42	=42	=42	=42	=42	=42
8C/L	.	8g/L	.	8een\L	.	2.ryy	2.ryy	2g\	Cau-	2.ryy	2.ryy	2.ryy	2.ryy	2.r	.	2.r	.
8C/	.	8g/	.	8een\	.	.	.	.	.	.	.	.	.	.	.	.	.
8C/	.	8g/	.	8een\	.	.	.	.	.	.	.	.	.	.	.	.	.
8C/	.	8g/	.	8een\	.	.	.	.	.	.	.	.	.	.	.	.	.
8C/	.	8g/	.	8een\	.	.	.	16a\LL	.	.	.	.	.	.	.	.	.
.	.	.	.	.	.	.	.	16g\JJ	.	.	.	.	.	.	.	.	.
8C/J	.	8g/J	.	8een\J	.	.	.	16f\LL	-ſa	.	.	.	.	.	.	.	.
!	!	!	!	!	!	!	!	!LO:TX:a:t=SIC&colon;s=8en	!	!	!	!	!	!	!	!	!
.	.	.	.	.	.	.	.	16e-\JJ	.	.	.	.	.	.	.	.	.
=43	=43	=43	=43	=43	=43	=43	=43	=43	=43	=43	=43	=43	=43	=43	=43	=43	=43
8F\L	.	8a/L	.	8ff\L	.	2.ryy	2.ryy	(4.f\	No-	2.ryy	2.ryy	2.ryy	2.ryy	2.r	.	2.r	.
8F\	.	8a/	.	8ff\	.	.	.	.	.	.	.	.	.	.	.	.	.
8F\	.	8a/	.	8ff\	.	.	.	.	.	.	.	.	.	.	.	.	.
8F\	.	8a/	.	8ff\	.	.	.	8g\)	.	.	.	.	.	.	.	.	.
8F\	.	8a/	.	8ff\	.	.	.	4a\	-ſtrae	.	.	.	.	.	.	.	.
8F\J	.	8a/J	.	8ff\J	.	.	.	.	.	.	.	.	.	.	.	.	.
*Xtremolo	*	*Xtremolo	*	*Xtremolo	*	*	*	*	*	*	*	*	*	*	*	*	*
=44	=44	=44	=44	=44	=44	=44	=44	=44	=44	=44	=44	=44	=44	=44	=44	=44	=44
!LO:TX:a:t=P:problem:mixed beam	!	!	!	!	!	!	!	!	!	!	!	!	!	!	!	!	!
8B-\L	.	8b-/L	.	8gg\L	.	2.ryy	2.ryy	8b-\L	lae-	2.ryy	2.ryy	2.ryy	2.ryy	2.r	.	2.r	.
8B-\	.	8b-/	.	8gg\	.	.	.	16a\L	.	.	.	.	.	.	.	.	.
.	.	.	.	.	.	.	.	16g\JJ	.	.	.	.	.	.	.	.	.
8c\	.	8a/	.	8ff\	.	.	.	4f\	-ti-	.	.	.	.	.	.	.	.
8c\	.	8a/	.	8ff\	.	.	.	.	.	.	.	.	.	.	.	.	.
8C\	.	8g/	.	8een\	.	.	.	4en\	-ti-	.	.	.	.	.	.	.	.
8C\J	.	8g/J	.	8ee\J	.	.	.	.	.	.	.	.	.	.	.	.	.
=45	=45	=45	=45	=45	=45	=45	=45	=45	=45	=45	=45	=45	=45	=45	=45	=45	=45
*tremolo	*	*tremolo	*	*	*	*	*	*	*	*	*	*	*	*	*	*	*
8F\L	.	8a/L	.	8ff\L	.	2.ryy	2.ryy	4f\	-ae	2.ryy	2.ryy	2.ryy	2.ryy	2.r	.	2.r	.
8F\	.	8a/	.	8cc\	.	.	.	.	.	.	.	.	.	.	.	.	.
8F\	.	8a/	.	8cc\	.	.	.	16a\LL	o-	.	.	.	.	.	.	.	.
.	.	.	.	.	.	.	.	16g\	.	.	.	.	.	.	.	.	.
8F\	.	8a/	.	8cc\	.	.	.	16f\	.	.	.	.	.	.	.	.	.
!	!	!	!	!	!	!	!	!LO:TX:a:t=SIC&colon;s=8en	!	!	!	!	!	!	!	!	!
.	.	.	.	.	.	.	.	16e-\JJ	.	.	.	.	.	.	.	.	.
8F\	.	8a/	.	8cc\	.	.	.	16f\LL	.	.	.	.	.	.	.	.	.
!	!	!	!	!	!	!	!	!LO:TX:a:t=SIC&colon;s=8en	!	!	!	!	!	!	!	!	!
.	.	.	.	.	.	.	.	16e-\	.	.	.	.	.	.	.	.	.
8F\J	.	8a/J	.	8cc\J	.	.	.	16d\	.	.	.	.	.	.	.	.	.
.	.	.	.	.	.	.	.	16c\JJ	.	.	.	.	.	.	.	.	.
=46	=46	=46	=46	=46	=46	=46	=46	=46	=46	=46	=46	=46	=46	=46	=46	=46	=46
*	*	*	*	*tremolo	*	*	*	*	*	*	*	*	*	*	*	*	*
8B-\L	.	8f/L	.	8dd\L	.	2.ryy	2.ryy	16d\LL	.	2.ryy	2.ryy	2.ryy	2.ryy	2.r	.	2.r	.
.	.	.	.	.	.	.	.	16B-\	.	.	.	.	.	.	.	.	.
8B-\	.	8f/	.	8dd\	.	.	.	16c\	.	.	.	.	.	.	.	.	.
.	.	.	.	.	.	.	.	16d\JJ	.	.	.	.	.	.	.	.	.
!	!	!	!	!	!	!	!	!LO:TX:a:t=SIC&colon;s=8en	!	!	!	!	!	!	!	!	!
8B-\	.	8f/	.	8dd\	.	.	.	16e-\LL	.	.	.	.	.	.	.	.	.
.	.	.	.	.	.	.	.	16f\	.	.	.	.	.	.	.	.	.
8B-\	.	8f/	.	8dd\	.	.	.	16g\	.	.	.	.	.	.	.	.	.
.	.	.	.	.	.	.	.	16a\JJ	.	.	.	.	.	.	.	.	.
8B-\	.	8f/	.	8dd\	.	.	.	16b-\LL	.	.	.	.	.	.	.	.	.
.	.	.	.	.	.	.	.	16a\	.	.	.	.	.	.	.	.	.
8B-\J	.	8f/J	.	8dd\J	.	.	.	16g\	.	.	.	.	.	.	.	.	.
.	.	.	.	.	.	.	.	16f\JJ	.	.	.	.	.	.	.	.	.
=47	=47	=47	=47	=47	=47	=47	=47	=47	=47	=47	=47	=47	=47	=47	=47	=47	=47
8En\L	.	8g/L	.	8b-\L	.	2.ryy	2.ryy	4g\	.	2.ryy	2.ryy	2.ryy	2.ryy	2.r	.	2.r	.
8En\	.	8g/	.	8b-\	.	.	.	.	.	.	.	.	.	.	.	.	.
8En\	.	8g/	.	8b-\	.	.	.	16g\LL	.	.	.	.	.	.	.	.	.
.	.	.	.	.	.	.	.	16f\	.	.	.	.	.	.	.	.	.
!	!	!	!	!	!	!	!	!LO:TX:a:t=SIC&colon;s=8en	!	!	!	!	!	!	!	!	!
8En\	.	8g/	.	8b-\	.	.	.	16e-\	.	.	.	.	.	.	.	.	.
.	.	.	.	.	.	.	.	16d\JJ	.	.	.	.	.	.	.	.	.
!	!	!	!	!	!	!	!	!LO:TX:a:t=SIC&colon;s=8en	!	!	!	!	!	!	!	!	!
8En\	.	8g/	.	8b-\	.	.	.	16e-\LL	.	.	.	.	.	.	.	.	.
.	.	.	.	.	.	.	.	16d\	.	.	.	.	.	.	.	.	.
8En\J	.	8g/J	.	8b-\J	.	.	.	16c\	.	.	.	.	.	.	.	.	.
.	.	.	.	.	.	.	.	16B-\JJ	.	.	.	.	.	.	.	.	.
=48	=48	=48	=48	=48	=48	=48	=48	=48	=48	=48	=48	=48	=48	=48	=48	=48	=48
8A\L	.	8en/L	.	8cc\L	.	2.ryy	2.ryy	16c/LL	.	2.ryy	2.ryy	2.ryy	2.ryy	2.r	.	2.r	.
.	.	.	.	.	.	.	.	16A/	.	.	.	.	.	.	.	.	.
8A\	.	8en/	.	8cc\	.	.	.	16B-/	.	.	.	.	.	.	.	.	.
.	.	.	.	.	.	.	.	16c/JJ	.	.	.	.	.	.	.	.	.
8A\	.	8en/	.	8cc\	.	.	.	16d\LL	.	.	.	.	.	.	.	.	.
.	.	.	.	.	.	.	.	16en\	.	.	.	.	.	.	.	.	.
8A\	.	8en/	.	8cc\	.	.	.	16f\	.	.	.	.	.	.	.	.	.
.	.	.	.	.	.	.	.	16g\JJ	.	.	.	.	.	.	.	.	.
8A\	.	8en/	.	8cc\	.	.	.	16a\LL	.	.	.	.	.	.	.	.	.
.	.	.	.	.	.	.	.	16g\	.	.	.	.	.	.	.	.	.
8A\J	.	8en/J	.	8cc\J	.	.	.	16f\	.	.	.	.	.	.	.	.	.
.	.	.	.	.	.	.	.	16e\JJ	.	.	.	.	.	.	.	.	.
=49	=49	=49	=49	=49	=49	=49	=49	=49	=49	=49	=49	=49	=49	=49	=49	=49	=49
8D\L	.	8f/L	.	8a/L	.	2.ryy	2.ryy	4f\	.	2.ryy	2.ryy	2.ryy	2.ryy	2.r	.	2.r	.
8D\	.	8f/	.	8a/	.	.	.	.	.	.	.	.	.	.	.	.	.
8D\	.	8f/	.	8a/	.	.	.	16f\LL	.	.	.	.	.	.	.	.	.
!	!	!	!	!	!	!	!	!LO:TX:a:t=SIC&colon;s=8en	!	!	!	!	!	!	!	!	!
.	.	.	.	.	.	.	.	16e-\	.	.	.	.	.	.	.	.	.
8D\	.	8f/	.	8a/	.	.	.	16d\	.	.	.	.	.	.	.	.	.
.	.	.	.	.	.	.	.	16c\JJ	.	.	.	.	.	.	.	.	.
8D\	.	8f/	.	8a/	.	.	.	16d/LL	.	.	.	.	.	.	.	.	.
.	.	.	.	.	.	.	.	16c/	.	.	.	.	.	.	.	.	.
8D\J	.	8f/J	.	8a/J	.	.	.	16B-/	.	.	.	.	.	.	.	.	.
.	.	.	.	.	.	.	.	16A/JJ	.	.	.	.	.	.	.	.	.
=50	=50	=50	=50	=50	=50	=50	=50	=50	=50	=50	=50	=50	=50	=50	=50	=50	=50
8G\L	.	8d/L	.	8b-\L	.	2.ryy	2.ryy	16B-/LL	.	2.ryy	2.ryy	2.ryy	2.ryy	2.r	.	2.r	.
.	.	.	.	.	.	.	.	16G/	.	.	.	.	.	.	.	.	.
8G\	.	8d/	.	8b-\	.	.	.	16A/	.	.	.	.	.	.	.	.	.
.	.	.	.	.	.	.	.	16B-/JJ	.	.	.	.	.	.	.	.	.
8G\	.	8d/	.	8b-\	.	.	.	16c\LL	.	.	.	.	.	.	.	.	.
.	.	.	.	.	.	.	.	16d\	.	.	.	.	.	.	.	.	.
8G\	.	8d/	.	8b-\	.	.	.	16en\	.	.	.	.	.	.	.	.	.
.	.	.	.	.	.	.	.	16f\JJ	.	.	.	.	.	.	.	.	.
8G\	.	8d/	.	8b-\	.	.	.	16g\LL	.	.	.	.	.	.	.	.	.
.	.	.	.	.	.	.	.	16f\	.	.	.	.	.	.	.	.	.
8G\J	.	8d/J	.	8b-\J	.	.	.	16e\	.	.	.	.	.	.	.	.	.
.	.	.	.	.	.	.	.	16d\JJ	.	.	.	.	.	.	.	.	.
=51	=51	=51	=51	=51	=51	=51	=51	=51	=51	=51	=51	=51	=51	=51	=51	=51	=51
8C/L	.	8en/L	.	8g/L	.	2.ryy	2.ryy	4en\	.	2.ryy	2.ryy	2.ryy	2.ryy	2.r	.	2.r	.
8C/	.	8en/	.	8g/	.	.	.	.	.	.	.	.	.	.	.	.	.
8C/	.	8en/	.	8g/	.	.	.	16e\LL	.	.	.	.	.	.	.	.	.
.	.	.	.	.	.	.	.	16d\	.	.	.	.	.	.	.	.	.
8C/	.	8en/	.	8g/	.	.	.	16c\	.	.	.	.	.	.	.	.	.
.	.	.	.	.	.	.	.	16B-\JJ	.	.	.	.	.	.	.	.	.
8C/	.	8en/	.	8g/	.	.	.	16c/LL	.	.	.	.	.	.	.	.	.
.	.	.	.	.	.	.	.	16B-/	.	.	.	.	.	.	.	.	.
8C/J	.	8en/J	.	8g/J	.	.	.	16A/	.	.	.	.	.	.	.	.	.
.	.	.	.	.	.	.	.	16G/JJ	.	.	.	.	.	.	.	.	.
*Xtremolo	*	*Xtremolo	*	*Xtremolo	*	*	*	*	*	*	*	*	*	*	*	*	*
=52	=52	=52	=52	=52	=52	=52	=52	=52	=52	=52	=52	=52	=52	=52	=52	=52	=52
4F\	.	4c/	.	4a/	.	2.ryy	2.ryy	8A/L	.	2.ryy	2.ryy	2.ryy	2.ryy	2.r	.	2.r	.
.	.	.	.	.	.	.	.	16B-/L	.	.	.	.	.	.	.	.	.
.	.	.	.	.	.	.	.	16c/JJ	.	.	.	.	.	.	.	.	.
4r	.	4r	.	4r	.	.	.	16d\LL	.	.	.	.	.	.	.	.	.
!	!	!	!	!	!	!	!	!LO:TX:a:t=SIC&colon;s=8en	!	!	!	!	!	!	!	!	!
.	.	.	.	.	.	.	.	16e-\	.	.	.	.	.	.	.	.	.
.	.	.	.	.	.	.	.	16f\	.	.	.	.	.	.	.	.	.
.	.	.	.	.	.	.	.	16g\JJ	.	.	.	.	.	.	.	.	.
4A\	.	4f/	.	4ff\	.	.	.	16a\LL	.	.	.	.	.	.	.	.	.
.	.	.	.	.	.	.	.	16f\	.	.	.	.	.	.	.	.	.
.	.	.	.	.	.	.	.	16en\	.	.	.	.	.	.	.	.	.
.	.	.	.	.	.	.	.	16f\JJ	.	.	.	.	.	.	.	.	.
=53	=53	=53	=53	=53	=53	=53	=53	=53	=53	=53	=53	=53	=53	=53	=53	=53	=53
4B-\	.	2b-/	.	2gg\	.	2.ryy	2.ryy	16g\LL	.	2.ryy	2.ryy	2.ryy	2.ryy	2.r	.	2.r	.
.	.	.	.	.	.	.	.	16f\	.	.	.	.	.	.	.	.	.
.	.	.	.	.	.	.	.	16g\	.	.	.	.	.	.	.	.	.
.	.	.	.	.	.	.	.	16a\JJ	.	.	.	.	.	.	.	.	.
4B-\	.	.	.	.	.	.	.	8b-\L	-ra	.	.	.	.	.	.	.	.
.	.	.	.	.	.	.	.	8g\J	.	.	.	.	.	.	.	.	.
4Bn\	.	4a/	.	4ff\	.	.	.	8a\L	pro	.	.	.	.	.	.	.	.
.	.	.	.	.	.	.	.	8f\J	.	.	.	.	.	.	.	.	.
=54	=54	=54	=54	=54	=54	=54	=54	=54	=54	=54	=54	=54	=54	=54	=54	=54	=54
!	!	!	!	!LO:TX:a:t=P:problem:mixed beam	!	!	!	!	!	!	!	!	!	!LO:TX:a:t=S.	!LO:DY:a	!LO:TX:a:t=Soli	!LO:DY:a
4c\	.	8g/L	.	8een\L	.	2.ryy	2.ryy	8en\L	no-	2.ryy	2.ryy	2.ryy	2.ryy	4.g`/	p	4.eeX\	p
.	.	8en/	.	8g\	.	.	.	16d\L	.	.	.	.	.	.	.	.	.
.	.	.	.	.	.	.	.	16c\JJ	.	.	.	.	.	.	.	.	.
4C/	.	8e/	.	8g\	.	.	.	4c\	-bis	.	.	.	.	.	.	.	.
.	.	8e/	.	8g\	.	.	.	.	.	.	.	.	.	(16g/LL	.	(16ee\LL	.
.	.	.	.	.	.	.	.	.	.	.	.	.	.	16a/JJ)	.	16ff\JJ)	.
4r	.	8e/	.	8g\	.	.	.	4r	.	.	.	.	.	8b-`\L	.	8gg`\L	.
.	.	8e/J	.	8g\J	.	.	.	.	.	.	.	.	.	8b-`\J	.	8gg`\J	.
=55	=55	=55	=55	=55	=55	=55	=55	=55	=55	=55	=55	=55	=55	=55	=55	=55	=55
!	!	!LO:TX:a:t=SIC&colon;s=2.en	!	!	!	!	!	!	!	!	!	!	!	!	!	!	!
4c\	.	8e-/L	.	8g/L	.	2.ryy	2.ryy	4.en\	o-	2.ryy	2.ryy	2.ryy	2.ryy	(8b-/L	.	(8gg\L	.
.	.	8e-/	.	8g/	.	.	.	.	.	.	.	.	.	8g/J)	.	8eeX\J)	.
4C/	.	8e-/	.	8g/	.	.	.	.	.	.	.	.	.	4g`/	.	4ee`\	.
.	.	8e-/	.	8g/	.	.	.	8c\L	.	.	.	.	.	.	.	.	.
4r	.	8e-/	.	8g/	.	.	.	8e\	.	.	.	.	.	4r	.	4r	.
.	.	8e-/J	.	8g/J	.	.	.	8g\J	.	.	.	.	.	.	.	.	.
=56	=56	=56	=56	=56	=56	=56	=56	=56	=56	=56	=56	=56	=56	=56	=56	=56	=56
4F\	.	8c/L	.	8a/L	.	2.ryy	2.ryy	16g\LL	.	2.ryy	2.ryy	2.ryy	2.ryy	4.a`\	.	4.ff\	.
.	.	.	.	.	.	.	.	16f\	.	.	.	.	.	.	.	.	.
.	.	8c/	.	8a/	.	.	.	16en\	.	.	.	.	.	.	.	.	.
.	.	.	.	.	.	.	.	16f\JJ	.	.	.	.	.	.	.	.	.
4FF/	.	8c/	.	8a/	.	.	.	4f\	-ra	.	.	.	.	.	.	.	.
.	.	8c/	.	8a/	.	.	.	.	.	.	.	.	.	(16a\LL	.	(16ff\LL	.
.	.	.	.	.	.	.	.	.	.	.	.	.	.	16b-\JJ)	.	16gg\JJ)	.
4r	.	8c/	.	8a/	.	.	.	4r	.	.	.	.	.	8cc`\L	.	8aa`\L	.
.	.	8c/J	.	8a/J	.	.	.	.	.	.	.	.	.	8cc`\J	.	8aa`\J	.
=57	=57	=57	=57	=57	=57	=57	=57	=57	=57	=57	=57	=57	=57	=57	=57	=57	=57
4F\	.	8c/L	.	8a/L	.	2.ryy	2.ryy	4.f\	o-	2.ryy	2.ryy	2.ryy	2.ryy	(8cc\L	.	(8aa\L	.
.	.	8c/	.	8a/	.	.	.	.	.	.	.	.	.	8a\J)	.	8ff\J)	.
4FF/	.	8c/	.	8a/	.	.	.	.	.	.	.	.	.	4a`\	.	4ff\	.
.	.	8c/	.	8a/	.	.	.	8d\L	.	.	.	.	.	.	.	.	.
4r	.	8c/	.	8a/	.	.	.	8f\	.	.	.	.	.	4r	.	4r	.
.	.	8c/J	.	8a/J	.	.	.	8a\J	.	.	.	.	.	.	.	.	.
=58	=58	=58	=58	=58	=58	=58	=58	=58	=58	=58	=58	=58	=58	=58	=58	=58	=58
4C/	.	8en/L	.	8g/L	.	2.ryy	2.ryy	16a\LL	.	2.ryy	2.ryy	2.ryy	2.ryy	4.eeX`\	.	4.gg\	.
.	.	.	.	.	.	.	.	16g\	.	.	.	.	.	.	.	.	.
.	.	8en/	.	8g/	.	.	.	16f\	.	.	.	.	.	.	.	.	.
.	.	.	.	.	.	.	.	16g\JJ	.	.	.	.	.	.	.	.	.
4C/	.	8en/	.	8g/	.	.	.	4g\	-ra	.	.	.	.	.	.	.	.
.	.	8en/	.	8g/	.	.	.	.	.	.	.	.	.	(16ee\LL	.	(16gg\LL	.
.	.	.	.	.	.	.	.	.	.	.	.	.	.	16ff\JJ)	.	16aa\JJ)	.
4r	.	8en/	.	8g/	.	.	.	4r	.	.	.	.	.	8gg`\L	.	8bb-`\L	.
.	.	8en/J	.	8g/J	.	.	.	.	.	.	.	.	.	8gg`\J	.	8bb-`\J	.
=59	=59	=59	=59	=59	=59	=59	=59	=59	=59	=59	=59	=59	=59	=59	=59	=59	=59
4c\	.	8en/L	.	8g/L	.	2.ryy	2.ryy	4g\	o-	2.ryy	2.ryy	2.ryy	2.ryy	(8gg\L	.	(8bb-\L	.
.	.	8e/	.	8g/	.	.	.	.	.	.	.	.	.	8eeX\J)	.	8gg\J)	.
4C/	.	8e/	.	8g/	.	.	.	8c\L	.	.	.	.	.	4ee`\	.	4gg`\	.
.	.	8e/	.	8g/	.	.	.	8en\	.	.	.	.	.	.	.	.	.
4r	.	8e/	.	8g/	.	.	.	8g\	.	.	.	.	.	4r	.	4r	.
.	.	8e/J	.	8g/J	.	.	.	8b-\J	.	.	.	.	.	.	.	.	.
=60	=60	=60	=60	=60	=60	=60	=60	=60	=60	=60	=60	=60	=60	=60	=60	=60	=60
4F\	.	4f/	.	4a/	.	2.ryy	2.ryy	8a\L	.	2.ryy	2.ryy	2.ryy	2.ryy	4a\	.	4ff\	.
.	.	.	.	.	.	.	.	16g\L	.	.	.	.	.	.	.	.	.
.	.	.	.	.	.	.	.	16f\JJ	.	.	.	.	.	.	.	.	.
4G\	.	4en/	.	4b-\	.	.	.	8en\L	.	.	.	.	.	4b-\	.	4eeX\	.
.	.	.	.	.	.	.	.	16d\L	.	.	.	.	.	.	.	.	.
.	.	.	.	.	.	.	.	16e\JJ	.	.	.	.	.	.	.	.	.
4A\	.	4f/	.	4cc\	.	.	.	8f\L	.	.	.	.	.	4cc\	.	4ff\	.
.	.	.	.	.	.	.	.	16e\L	.	.	.	.	.	.	.	.	.
.	.	.	.	.	.	.	.	16f\JJ	.	.	.	.	.	.	.	.	.
=61	=61	=61	=61	=61	=61	=61	=61	=61	=61	=61	=61	=61	=61	=61	=61	=61	=61
4B-\	.	8g/L	.	8dd\L	.	2.ryy	2.ryy	16g\LL	-ra	2.ryy	2.ryy	2.ryy	2.ryy	4b-\	.	4gg\	.
.	.	.	.	.	.	.	.	16b-\JJ	.	.	.	.	.	.	.	.	.
.	.	8b-/J	.	16bb-\L	.	.	.	16a\LL	pro	.	.	.	.	.	.	.	.
.	.	.	.	16gg\JJ	.	.	.	16g\JJ	.	.	.	.	.	.	.	.	.
4c\	.	4a/	.	4ff\	.	.	.	4f\	no-	.	.	.	.	4a\	.	4ff\	.
4C/	.	4g/	.	4een\	.	.	.	4en\	.	.	.	.	.	4g\	.	4eeX\	.
=62	=62	=62	=62	=62	=62	=62	=62	=62	=62	=62	=62	=62	=62	=62	=62	=62	=62
!	!LO:DY:a	!	!LO:DY:a	!	!LO:DY:a	!	!	!	!	!	!	!	!	!	!	!	!
8FF/L	f	8a/L	f	8ff\L	f	2.ryy	2.ryy	4f\	-bis	2.ryy	2.ryy	2.ryy	2.ryy	4a\	.	4ff\	.
8FF/	.	16a/L	.	16aa\L	.	.	.	.	.	.	.	.	.	.	.	.	.
.	.	16g/JJ	.	16gg\JJ	.	.	.	.	.	.	.	.	.	.	.	.	.
8AA/	.	8f/L	.	8ff\L	.	.	.	4r	.	.	.	.	.	4r	.	4r	.
8AA/	.	8f/J	.	8ff\J	.	.	.	.	.	.	.	.	.	.	.	.	.
8C/	.	(16f/LL	.	16ff\LL	.	.	.	4r	.	.	.	.	.	4r	.	4r	.
.	.	16en/)	.	16een\	.	.	.	.	.	.	.	.	.	.	.	.	.
8C/J	.	(16d/	.	16dd\	.	.	.	.	.	.	.	.	.	.	.	.	.
.	.	16e/JJ)	.	16ee\JJ	.	.	.	.	.	.	.	.	.	.	.	.	.
=63	=63	=63	=63	=63	=63	=63	=63	=63	=63	=63	=63	=63	=63	=63	=63	=63	=63
8D\L	.	(8.f/L	.	(8.ff\L	.	2.ryy	2.ryy	2.r	.	2.ryy	2.ryy	2.ryy	2.ryy	2.r	.	2.r	.
8D\	.	.	.	.	.	.	.	.	.	.	.	.	.	.	.	.	.
.	.	32g/LL	.	32gg\LL	.	.	.	.	.	.	.	.	.	.	.	.	.
.	.	32a/JJJ)	.	32aa\JJJ)	.	.	.	.	.	.	.	.	.	.	.	.	.
8En\	.	(16a/LL	.	8gg\L	.	.	.	.	.	.	.	.	.	.	.	.	.
.	.	16g/)	.	.	.	.	.	.	.	.	.	.	.	.	.	.	.
8E\	.	(16f/	.	(16ff\L	.	.	.	.	.	.	.	.	.	.	.	.	.
.	.	16g/JJ)	.	16gg\JJ)	.	.	.	.	.	.	.	.	.	.	.	.	.
8F\	.	(16a/LL	.	(16aa\LL	.	.	.	.	.	.	.	.	.	.	.	.	.
.	.	16b-/)	.	16bb-\)	.	.	.	.	.	.	.	.	.	.	.	.	.
8F\J	.	(16cc/	.	(16ccc\	.	.	.	.	.	.	.	.	.	.	.	.	.
.	.	16a/JJ)	.	16aa\JJ)	.	.	.	.	.	.	.	.	.	.	.	.	.
=64	=64	=64	=64	=64	=64	=64	=64	=64	=64	=64	=64	=64	=64	=64	=64	=64	=64
8G\L	.	(16b-/LL	.	16bb-\LL	.	2.ryy	2.ryy	2.r	.	2.ryy	2.ryy	2.ryy	2.ryy	2.r	.	2.r	.
.	.	16g/)	.	(16gg\	.	.	.	.	.	.	.	.	.	.	.	.	.
8G\	.	(16f/	.	16ff\	.	.	.	.	.	.	.	.	.	.	.	.	.
.	.	16en/JJ)	.	16een\JJ)	.	.	.	.	.	.	.	.	.	.	.	.	.
!	!	!LO:TX:a:t=P:problem: w źródle niejednoznaczny zapis łuku	!	!	!	!	!	!	!	!	!	!	!	!	!	!	!
8A\	.	(16f/LL	.	16ff\LL	.	.	.	.	.	.	.	.	.	.	.	.	.
.	.	16g/	.	16gg\	.	.	.	.	.	.	.	.	.	.	.	.	.
8A\	.	16a/	.	16aa\	.	.	.	.	.	.	.	.	.	.	.	.	.
.	.	16f/JJ)	.	16ff\JJ	.	.	.	.	.	.	.	.	.	.	.	.	.
8Bn\	.	(16e/LL	.	16ee\LL	.	.	.	.	.	.	.	.	.	.	.	.	.
.	.	16d/)	.	16dd\	.	.	.	.	.	.	.	.	.	.	.	.	.
8B\J	.	(16b-/	.	16bb-\	.	.	.	.	.	.	.	.	.	.	.	.	.
.	.	16g/JJ)	.	16gg\JJ	.	.	.	.	.	.	.	.	.	.	.	.	.
=65	=65	=65	=65	=65	=65	=65	=65	=65	=65	=65	=65	=65	=65	=65	=65	=65	=65
4c\	.	8f/L	.	8ff\L	.	2.ryy	2.ryy	2.r	.	2.ryy	2.ryy	2.ryy	2.ryy	2.r	.	2.r	.
.	.	16en/L	.	16een\L	.	.	.	.	.	.	.	.	.	.	.	.	.
.	.	16f/JJ	.	16ff\JJ	.	.	.	.	.	.	.	.	.	.	.	.	.
4C/	.	8e/L	.	8ee\L	.	.	.	.	.	.	.	.	.	.	.	.	.
.	.	(16c/L	.	16cc\L	.	.	.	.	.	.	.	.	.	.	.	.	.
.	.	16d/JJ)	.	16dd\JJ	.	.	.	.	.	.	.	.	.	.	.	.	.
4r	.	(16e/LL	.	16ee\LL	.	.	.	.	.	.	.	.	.	.	.	.	.
.	.	16f/)	.	16ff\	.	.	.	.	.	.	.	.	.	.	.	.	.
.	.	(16g/	.	16gg\	.	.	.	.	.	.	.	.	.	.	.	.	.
.	.	16a/JJ)	.	16aa\JJ	.	.	.	.	.	.	.	.	.	.	.	.	.
=66	=66	=66	=66	=66	=66	=66	=66	=66	=66	=66	=66	=66	=66	=66	=66	=66	=66
!LO:TX:a:t=P:problem:mixed beam	!	!	!	!	!	!	!	!	!	!	!	!	!	!	!LO:DY:a	!LO:TX:a:t=P:problem: w źródle f = for&colon;	!LO:DY:a
8C\L	.	8g/L	.	8gg\L	.	2.ryy	2.ryy	2.r	.	2.ryy	2.ryy	2.ryy	2.ryy	2.cc\	f	2.eeX\	f
8C\	.	16g/L	.	16een\L	.	.	.	.	.	.	.	.	.	.	.	.	.
.	.	16a/JJ	.	16ff\JJ	.	.	.	.	.	.	.	.	.	.	.	.	.
8c\	.	8g/L	.	8ee\L	.	.	.	.	.	.	.	.	.	.	.	.	.
8c\	.	8g/J	.	8ee\J	.	.	.	.	.	.	.	.	.	.	.	.	.
8B-X\	.	8g/L	.	16ee\LL	.	.	.	.	.	.	.	.	.	.	.	.	.
.	.	.	.	16ff\	.	.	.	.	.	.	.	.	.	.	.	.	.
8B-\J	.	8g/J	.	16gg\	.	.	.	.	.	.	.	.	.	.	.	.	.
.	.	.	.	16ee\JJ	.	.	.	.	.	.	.	.	.	.	.	.	.
=67	=67	=67	=67	=67	=67	=67	=67	=67	=67	=67	=67	=67	=67	=67	=67	=67	=67
8A\L	.	8cc\L	.	8.ff\L	.	2.ryy	2.ryy	2.r	.	2.ryy	2.ryy	2.ryy	2.ryy	4cc\	.	4ff\	.
8A\	.	8cc\	.	.	.	.	.	.	.	.	.	.	.	.	.	.	.
!	!	!	!	!LO:TX:a:t=SIC&colon;s=8en	!	!	!	!	!	!	!	!	!	!	!	!	!
.	.	.	.	32ee-\LL	.	.	.	.	.	.	.	.	.	.	.	.	.
.	.	.	.	32ff\JJJ	.	.	.	.	.	.	.	.	.	.	.	.	.
8En\	.	8cc\	.	8.gg\L	.	.	.	.	.	.	.	.	.	4cc\	.	4gg\	.
8E\	.	8cc\	.	.	.	.	.	.	.	.	.	.	.	.	.	.	.
.	.	.	.	32ff\LL	.	.	.	.	.	.	.	.	.	.	.	.	.
.	.	.	.	32gg\JJJ	.	.	.	.	.	.	.	.	.	.	.	.	.
8F\	.	8cc\	.	16bb-\LL	.	.	.	.	.	.	.	.	.	4cc\	.	4aa\	.
.	.	.	.	16aa\	.	.	.	.	.	.	.	.	.	.	.	.	.
8F\J	.	8cc\J	.	16gg\	.	.	.	.	.	.	.	.	.	.	.	.	.
.	.	.	.	16ff\JJ	.	.	.	.	.	.	.	.	.	.	.	.	.
=68	=68	=68	=68	=68	=68	=68	=68	=68	=68	=68	=68	=68	=68	=68	=68	=68	=68
4B-\	.	16b-\LL	.	16gg\LL	.	2.ryy	2.ryy	2.r	.	2.ryy	2.ryy	2.ryy	2.ryy	4b-\	.	4gg\	.
.	.	16cc\	.	16aa\	.	.	.	.	.	.	.	.	.	.	.	.	.
.	.	16dd\	.	16bb-\	.	.	.	.	.	.	.	.	.	.	.	.	.
.	.	16b-\JJ	.	16gg\JJ	.	.	.	.	.	.	.	.	.	.	.	.	.
4c\	.	4a/	.	4ff\	.	.	.	.	.	.	.	.	.	4a\	.	4ff\	.
!	!	!	!	!	!	!	!	!	!	!	!	!	!	!LO:TX:a:t=Soli	!	!LO:TX:a:t=Soli	!
4C/	.	4g/	.	4een\	.	.	.	.	.	.	.	.	.	4g\	.	4eeX\	.
=69	=69	=69	=69	=69	=69	=69	=69	=69	=69	=69	=69	=69	=69	=69	=69	=69	=69
!	!LO:DY:a	!	!LO:DY:a	!LO:TX:a:t=P:problem:mixed beam	!LO:DY:a	!	!	!	!	!	!	!	!	!	!	!	!
4F\	p	8f/L	p	8ff\L	p	2.ryy	2.ryy	2.r	.	2.ryy	2.ryy	2.ryy	2.ryy	(8.a\L	.	(8.ff\L	.
.	.	8c/J	.	8a\J	.	.	.	.	.	.	.	.	.	.	.	.	.
.	.	.	.	.	.	.	.	.	.	.	.	.	.	16cc\K)	.	16aa\K)	.
4FF/	.	(8.A/L	.	(8.f/L	.	.	.	.	.	.	.	.	.	(8.a\	.	(8.ff\	.
.	.	16c/Jk)	.	16a/Jk)	.	.	.	.	.	.	.	.	.	16cc\Jk)	.	16aa\Jk)	.
4C/	.	(16c/LL	.	(16a/LL	.	.	.	.	.	.	.	.	.	(16cc\LL	.	(16aa\LL	.
.	.	16B-/)	.	16g/)	.	.	.	.	.	.	.	.	.	16b-\)	.	16gg\)	.
.	.	(16A/	.	(16f/	.	.	.	.	.	.	.	.	.	(16a\	.	(16ff\	.
.	.	16G/JJ)	.	16en/JJ)	.	.	.	.	.	.	.	.	.	16g\JJ)	.	16eeX\JJ)	.
=70	=70	=70	=70	=70	=70	=70	=70	=70	=70	=70	=70	=70	=70	=70	=70	=70	=70
4F\	.	(8.A/L	.	(8.f/L	.	2.ryy	2.ryy	2.r	.	2.ryy	2.ryy	2.ryy	2.ryy	(8.a\L	.	(8.ff\L	.
.	.	16c/Jk)	.	16a/K)	.	.	.	.	.	.	.	.	.	16cc\K)	.	16aa\K)	.
4FF/	.	(8.A/L	.	(8.f/	.	.	.	.	.	.	.	.	.	(8.a\	.	(8.ff\	.
.	.	16c/Jk)	.	16a/Jk)	.	.	.	.	.	.	.	.	.	16cc\Jk)	.	16aa\Jk)	.
4C/	.	(16c/LL	.	(16a/LL	.	.	.	.	.	.	.	.	.	(16cc\LL	.	(16aa\LL	.
.	.	16B-/)	.	16g/)	.	.	.	.	.	.	.	.	.	16b-\)	.	16gg\)	.
.	.	(16A/	.	(16f/	.	.	.	.	.	.	.	.	.	(16a\	.	(16ff\	.
.	.	16G/JJ)	.	16en/JJ)	.	.	.	.	.	.	.	.	.	16g\JJ)	.	16eeX\JJ)	.
=71	=71	=71	=71	=71	=71	=71	=71	=71	=71	=71	=71	=71	=71	=71	=71	=71	=71
!LO:TX:a:t=P:problem:mixed beam	!	!	!	!LO:TX:a:t=SIC&colon;s=4en	!	!	!	!	!	!	!	!	!	!	!	!LO:TX:a:t=SIC&colon;s=4ff#	!
8F\L	.	(4G/	.	(4e-/	.	2.ryy	2.ryy	2.r	.	2.ryy	2.ryy	2.ryy	2.ryy	(4g\	.	(4ee-\	.
8FF\J	.	.	.	.	.	.	.	.	.	.	.	.	.	.	.	.	.
4F\	.	4A/)	.	4f/)	.	.	.	.	.	.	.	.	.	4a\)	.	4ff\)	.
!	!LO:DY:a	!	!	!	!	!	!	!	!	!	!	!	!	!	!	!	!
4r	p	4r	.	4r	.	.	.	.	.	.	.	.	.	4r	.	4r	.
=72	=72	=72	=72	=72	=72	=72	=72	=72	=72	=72	=72	=72	=72	=72	=72	=72	=72
!	!	!	!LO:DY:a	!	!LO:DY:a	!	!	!	!	!	!	!	!	!	!	!	!
8F\L	.	8c/L	p	8a/L	p	2.ryy	2.ryy	2cc\	Vas	2.ryy	2.ryy	2.ryy	2.ryy	2.r	.	2.r	.
8F\	.	8c/	.	8a/	.	.	.	.	.	.	.	.	.	.	.	.	.
8F\	.	8c/	.	8a/	.	.	.	.	.	.	.	.	.	.	.	.	.
8F\	.	8c/	.	8a/	.	.	.	.	.	.	.	.	.	.	.	.	.
8F\	.	8c/	.	8a/	.	.	.	16b-\LL	ſpi-	.	.	.	.	.	.	.	.
.	.	.	.	.	.	.	.	16a\JJ	-ri-	.	.	.	.	.	.	.	.
8F\J	.	8c/J	.	8a/J	.	.	.	16g\LL	-tu-	.	.	.	.	.	.	.	.
.	.	.	.	.	.	.	.	16f\JJ	.	.	.	.	.	.	.	.	.
=73	=73	=73	=73	=73	=73	=73	=73	=73	=73	=73	=73	=73	=73	=73	=73	=73	=73
(8C/L	.	4B-/	.	4g/	.	2.ryy	2.ryy	(8en\	-a-	2.ryy	2.ryy	2.ryy	2.ryy	2.r	.	2.r	.
16D/L	.	.	.	.	.	.	.	16f\LL)	.	.	.	.	.	.	.	.	.
16En/JJ)	.	.	.	.	.	.	.	16g\JJ	.	.	.	.	.	.	.	.	.
8F'/L	.	8A/L	.	8f/L	.	.	.	4f\	-le	.	.	.	.	.	.	.	.
8C'/	.	8c/	.	8c/	.	.	.	.	.	.	.	.	.	.	.	.	.
8AA'/	.	8A/	.	8A/	.	.	.	4r	.	.	.	.	.	.	.	.	.
8C'/J	.	8c/J	.	8c/J	.	.	.	.	.	.	.	.	.	.	.	.	.
=74	=74	=74	=74	=74	=74	=74	=74	=74	=74	=74	=74	=74	=74	=74	=74	=74	=74
!LO:TX:a:t=P:problem:mixed beam	!	!	!	!	!	!	!	!	!	!	!	!	!	!	!	!	!
8FF\L	.	8f/L	.	8f/L	.	2.ryy	2.ryy	2cc\	Vas	2.ryy	2.ryy	2.ryy	2.ryy	2.r	.	2.r	.
8F\	.	8c/	.	8a/	.	.	.	.	.	.	.	.	.	.	.	.	.
8F\	.	8c/	.	8a/	.	.	.	.	.	.	.	.	.	.	.	.	.
8F\	.	8c/	.	8a/	.	.	.	.	.	.	.	.	.	.	.	.	.
8F\	.	8c/	.	8a/	.	.	.	16b-\LL	ho-	.	.	.	.	.	.	.	.
.	.	.	.	.	.	.	.	16a\JJ	.	.	.	.	.	.	.	.	.
8F\J	.	8c/J	.	8a/J	.	.	.	16g\LL	-no-	.	.	.	.	.	.	.	.
.	.	.	.	.	.	.	.	16f\JJ	.	.	.	.	.	.	.	.	.
=75	=75	=75	=75	=75	=75	=75	=75	=75	=75	=75	=75	=75	=75	=75	=75	=75	=75
!LO:N:vis=8.	!	!	!	!	!	!	!	!	!	!	!	!	!	!	!	!	!
(8C/L	.	4g/	.	8.een\L	.	2.ryy	2.ryy	8en\	-ra-	2.ryy	2.ryy	2.ryy	2.ryy	2.r	.	2.r	.
16D/L	.	.	.	.	.	.	.	16f\LL	-bi-	.	.	.	.	.	.	.	.
16En/JJ)	.	.	.	32dd\LL	.	.	.	16g\JJ	.	.	.	.	.	.	.	.	.
.	.	.	.	32ee\JJJ	.	.	.	.	.	.	.	.	.	.	.	.	.
8F'/L	.	8a/L	.	8ff\L	.	.	.	4f\	-le	.	.	.	.	.	.	.	.
8C'/	.	8cc/	.	8cc\J	.	.	.	.	.	.	.	.	.	.	.	.	.
8AA'/	.	8a/	.	8a/L	.	.	.	4r	.	.	.	.	.	.	.	.	.
8FF'/J	.	8f/J	.	8f/J	.	.	.	.	.	.	.	.	.	.	.	.	.
=76	=76	=76	=76	=76	=76	=76	=76	=76	=76	=76	=76	=76	=76	=76	=76	=76	=76
8BB-/L	.	8g/L	.	8dd\L	.	2.ryy	2.ryy	2dd\	o-	2.ryy	2.ryy	2.ryy	2.ryy	2.r	.	2.r	.
8BB-/	.	8g/	.	8dd\	.	.	.	.	.	.	.	.	.	.	.	.	.
8BB-/	.	8g/	.	8dd\	.	.	.	.	.	.	.	.	.	.	.	.	.
8BB-/	.	8g/	.	8dd\	.	.	.	.	.	.	.	.	.	.	.	.	.
8BB-/	.	8g/	.	8dd\	.	.	.	16cc\LL	.	.	.	.	.	.	.	.	.
.	.	.	.	.	.	.	.	16b-\	.	.	.	.	.	.	.	.	.
8BB-/J	.	8g/J	.	8dd\J	.	.	.	16a\	.	.	.	.	.	.	.	.	.
.	.	.	.	.	.	.	.	16g\JJ	.	.	.	.	.	.	.	.	.
=77	=77	=77	=77	=77	=77	=77	=77	=77	=77	=77	=77	=77	=77	=77	=77	=77	=77
8AA/L	.	8f/L	.	8cc\L	.	2.ryy	2.ryy	2cc\	.	2.ryy	2.ryy	2.ryy	2.ryy	2.r	.	2.r	.
8AA/	.	8f/	.	8cc\	.	.	.	.	.	.	.	.	.	.	.	.	.
8AA/	.	8f/	.	8cc\	.	.	.	.	.	.	.	.	.	.	.	.	.
8AA/	.	8f/	.	8cc\	.	.	.	.	.	.	.	.	.	.	.	.	.
8AA/	.	8f/	.	8cc\	.	.	.	16b-\LL	.	.	.	.	.	.	.	.	.
.	.	.	.	.	.	.	.	16a\	.	.	.	.	.	.	.	.	.
8AA/J	.	8f/J	.	8cc\J	.	.	.	16g\	.	.	.	.	.	.	.	.	.
.	.	.	.	.	.	.	.	16f\JJ	.	.	.	.	.	.	.	.	.
=78	=78	=78	=78	=78	=78	=78	=78	=78	=78	=78	=78	=78	=78	=78	=78	=78	=78
8BB-/L	.	8d/L	.	8dd\L	.	2.ryy	2.ryy	16g\LL	.	2.ryy	2.ryy	2.ryy	2.ryy	2.r	.	2.r	.
.	.	.	.	.	.	.	.	16f\	.	.	.	.	.	.	.	.	.
8BB-/	.	8d/	.	16een\L	.	.	.	16g\	.	.	.	.	.	.	.	.	.
.	.	.	.	16ff\JJ	.	.	.	16a\JJ	.	.	.	.	.	.	.	.	.
8BB-/	.	8d/	.	4gg\	.	.	.	4b-\	-ra	.	.	.	.	.	.	.	.
8BB-/	.	8d/	.	.	.	.	.	.	.	.	.	.	.	.	.	.	.
8BBn/	.	8d/	.	4ff\	.	.	.	4a\	pro	.	.	.	.	.	.	.	.
8BB/J	.	8d/J	.	.	.	.	.	.	.	.	.	.	.	.	.	.	.
=79	=79	=79	=79	=79	=79	=79	=79	=79	=79	=79	=79	=79	=79	=79	=79	=79	=79
8C/L	.	8c/L	.	8ff\L	.	2.ryy	2.ryy	8a\L	no-	2.ryy	2.ryy	2.ryy	2.ryy	2.r	.	2.r	.
16C/L	.	16c/L	.	16cc\L	.	.	.	16g\L	.	.	.	.	.	.	.	.	.
16BB-/JJ	.	16B-/JJ	.	16b-\JJ	.	.	.	16a\JJ	.	.	.	.	.	.	.	.	.
!	!	!	!	!LO:TX:a:t=P:problem:mixed beam	!	!	!	!	!	!	!	!	!	!	!	!	!
8C\L	.	8c/L	.	8cc\L	.	.	.	4g\	-bis	.	.	.	.	.	.	.	.
8C`\	.	8c/	.	8c\	.	.	.	.	.	.	.	.	.	.	.	.	.
8En`\	.	8en/	.	8en\	.	.	.	4r	.	.	.	.	.	.	.	.	.
8G`\J	.	8g/J	.	8g\J	.	.	.	.	.	.	.	.	.	.	.	.	.
=80	=80	=80	=80	=80	=80	=80	=80	=80	=80	=80	=80	=80	=80	=80	=80	=80	=80
!	!	!	!	!LO:TX:a:t=P:problem:mixed beam	!	!	!	!	!	!	!	!	!	!	!	!	!
4c\	.	8en/L	.	8cc\L	.	2.ryy	2.ryy	2cc\	Vas	2.ryy	2.ryy	2.ryy	2.ryy	2.r	.	2.r	.
.	.	16e/L	.	16en\L	.	.	.	.	.	.	.	.	.	.	.	.	.
.	.	16f/JJ	.	16f\JJ	.	.	.	.	.	.	.	.	.	.	.	.	.
8r	.	8e/L	.	8e/L	.	.	.	.	.	.	.	.	.	.	.	.	.
8En\L	.	8g/	.	8g/	.	.	.	.	.	.	.	.	.	.	.	.	.
8F\	.	8a/	.	8a/	.	.	.	4cc\	in-	.	.	.	.	.	.	.	.
8G\J	.	8b-/J	.	8b-/J	.	.	.	.	.	.	.	.	.	.	.	.	.
=81	=81	=81	=81	=81	=81	=81	=81	=81	=81	=81	=81	=81	=81	=81	=81	=81	=81
8F\L	.	8a/L	.	8a/L	.	2.ryy	2.ryy	4cc\	-ſig-	2.ryy	2.ryy	2.ryy	2.ryy	2.r	.	2.r	.
(32F\LL	.	(32f/LL	.	(32f/LL	.	.	.	.	.	.	.	.	.	.	.	.	.
32En\	.	32en/	.	32en/	.	.	.	.	.	.	.	.	.	.	.	.	.
32F\	.	32f/	.	32f/	.	.	.	.	.	.	.	.	.	.	.	.	.
32G\JJJ)	.	32g/JJJ)	.	32g/JJJ)	.	.	.	.	.	.	.	.	.	.	.	.	.
8A`\L	.	8a`/L	.	8a`/L	.	.	.	4cc\	-ne	.	.	.	.	.	.	.	.
8c`\	.	8cc`/	.	8cc`/	.	.	.	.	.	.	.	.	.	.	.	.	.
8A`\	.	8a`/	.	8a`/	.	.	.	4r	.	.	.	.	.	.	.	.	.
8F`\J	.	8f`/J	.	8f`/J	.	.	.	.	.	.	.	.	.	.	.	.	.
=82	=82	=82	=82	=82	=82	=82	=82	=82	=82	=82	=82	=82	=82	=82	=82	=82	=82
4C/	.	8en`/L	.	8en`/L	.	2.ryy	2.ryy	4cc\	De-	2.ryy	2.ryy	2.ryy	2.ryy	2.r	.	2.r	.
.	.	(16e/L	.	(16e/L	.	.	.	.	.	.	.	.	.	.	.	.	.
.	.	16f/JJ)	.	16f/JJ)	.	.	.	.	.	.	.	.	.	.	.	.	.
8r	.	8e`/L	.	(8e/L	.	.	.	4cc\	-vo-	.	.	.	.	.	.	.	.
8En\L	.	(8g/	.	8g/)	.	.	.	.	.	.	.	.	.	.	.	.	.
8F\	.	8a/	.	(8a/	.	.	.	4cc\	-ti-	.	.	.	.	.	.	.	.
8G\J	.	8b-/J)	.	8b-/J)	.	.	.	.	.	.	.	.	.	.	.	.	.
=83	=83	=83	=83	=83	=83	=83	=83	=83	=83	=83	=83	=83	=83	=83	=83	=83	=83
8F`\L	.	8a`/L	.	8a/L	.	2.ryy	2.ryy	4cc\	-o-	2.ryy	2.ryy	2.ryy	2.ryy	2.r	.	2.r	.
(32F\LL	.	(32f/LL	.	(32f/LL	.	.	.	.	.	.	.	.	.	.	.	.	.
32En\	.	32en/	.	32en/	.	.	.	.	.	.	.	.	.	.	.	.	.
32F\	.	32f/	.	32f/	.	.	.	.	.	.	.	.	.	.	.	.	.
32G\JJJ)	.	32g/JJJ)	.	32g/JJJ)	.	.	.	.	.	.	.	.	.	.	.	.	.
8A`\L	.	8a`/L	.	8a`/L	.	.	.	4cc\	-nis	.	.	.	.	.	.	.	.
8c`\	.	8cc`/	.	8cc`/	.	.	.	.	.	.	.	.	.	.	.	.	.
8A`\	.	8a`/	.	8a`/	.	.	.	4r	.	.	.	.	.	.	.	.	.
8F`\J	.	8f/J	.	8f`/J	.	.	.	.	.	.	.	.	.	.	.	.	.
=84	=84	=84	=84	=84	=84	=84	=84	=84	=84	=84	=84	=84	=84	=84	=84	=84	=84
!LO:TX:a:t=P:problem:mixed beam	!	!	!	!	!	!	!	!	!	!	!	!	!	!	!	!	!
8c\L	.	4en/	.	4en/	.	2.ryy	2.ryy	4.cc\	o-	2.ryy	2.ryy	2.ryy	2.ryy	2.r	.	2.r	.
8C\J	.	.	.	.	.	.	.	.	.	.	.	.	.	.	.	.	.
4c\	.	4e/	.	4e/	.	.	.	.	.	.	.	.	.	.	.	.	.
.	.	.	.	.	.	.	.	8b-\L	.	.	.	.	.	.	.	.	.
4r	.	4r	.	4r	.	.	.	8a\	.	.	.	.	.	.	.	.	.
.	.	.	.	.	.	.	.	8g\J	.	.	.	.	.	.	.	.	.
=85	=85	=85	=85	=85	=85	=85	=85	=85	=85	=85	=85	=85	=85	=85	=85	=85	=85
!	!	!	!	!	!	!	!	!	!	!	!	!	!	!	!LO:DY:a	!	!LO:DY:a
4F\	.	4A/	.	4.a/	.	2.ryy	2.ryy	8.f\L	.	2.ryy	2.ryy	2.ryy	2.ryy	4r	p	4r	p
.	.	.	.	.	.	.	.	16g\Jk	.	.	.	.	.	.	.	.	.
4FF/	.	4c/	.	.	.	.	.	8a\L	.	.	.	.	.	4a\	.	4ff\	.
.	.	.	.	8b-/L	.	.	.	8b-\J	.	.	.	.	.	.	.	.	.
4F\	.	4c/	.	8cc/	.	.	.	8cc\L	.	.	.	.	.	4a\	.	4ff\	.
.	.	.	.	8a/J	.	.	.	16b-\L	.	.	.	.	.	.	.	.	.
.	.	.	.	.	.	.	.	16a\JJ	.	.	.	.	.	.	.	.	.
=86	=86	=86	=86	=86	=86	=86	=86	=86	=86	=86	=86	=86	=86	=86	=86	=86	=86
!LO:TX:a:t=P:problem:mixed beam	!	!	!	!	!	!	!	!	!	!	!	!	!	!	!	!	!
8B-\L	.	8d/L	.	8b-/L	.	2.ryy	2.ryy	8g\	-ra	2.ryy	2.ryy	2.ryy	2.ryy	4b-\	.	4gg\	.
8B-\	.	16c/L	.	16a/L	.	.	.	16b-\LL	pro	.	.	.	.	.	.	.	.
.	.	16B-/JJ	.	16g/JJ	.	.	.	16g\JJ	.	.	.	.	.	.	.	.	.
8c\	.	4A/	.	4f/	.	.	.	4f\	no-	.	.	.	.	4a\	.	4ff\	.
8c\	.	.	.	.	.	.	.	.	.	.	.	.	.	.	.	.	.
8C\	.	4G/	.	4en/	.	.	.	4en\	.	.	.	.	.	4g\	.	4eeX\	.
8C\J	.	.	.	.	.	.	.	.	.	.	.	.	.	.	.	.	.
=87	=87	=87	=87	=87	=87	=87	=87	=87	=87	=87	=87	=87	=87	=87	=87	=87	=87
!LO:TX:a:t=P:problem:mixed beam	!	!	!	!	!	!	!	!	!	!	!	!	!	!	!	!	!
8F\L	.	4A/	.	4f/	.	2.ryy	2.ryy	4f\	-bis	2.ryy	2.ryy	2.ryy	2.ryy	4a\	.	4ff\	.
8FF\J	.	.	.	.	.	.	.	.	.	.	.	.	.	.	.	.	.
8F`\L	.	4r	.	4r	.	.	.	4r	.	.	.	.	.	4r	.	4r	.
8E-X`\	.	.	.	.	.	.	.	.	.	.	.	.	.	.	.	.	.
8D`\	.	4r	.	4r	.	.	.	4r	.	.	.	.	.	4r	.	4r	.
8C`\J	.	.	.	.	.	.	.	.	.	.	.	.	.	.	.	.	.
=88	=88	=88	=88	=88	=88	=88	=88	=88	=88	=88	=88	=88	=88	=88	=88	=88	=88
8BB-/L	.	2d/	.	2b-\	.	2.ryy	2.ryy	2B-/	Ro-	2.ryy	2.ryy	2.ryy	2.ryy	2.r	.	2.r	.
8BB-/	.	.	.	.	.	.	.	.	.	.	.	.	.	.	.	.	.
8BB-/	.	.	.	.	.	.	.	.	.	.	.	.	.	.	.	.	.
8BB-/	.	.	.	.	.	.	.	.	.	.	.	.	.	.	.	.	.
8BB-/	.	8b-\L	.	8dd\L	.	.	.	8d\L	.	.	.	.	.	.	.	.	.
8BB-/J	.	8dd\J	.	8ff\J	.	.	.	8f\J	.	.	.	.	.	.	.	.	.
=89	=89	=89	=89	=89	=89	=89	=89	=89	=89	=89	=89	=89	=89	=89	=89	=89	=89
!LO:TX:a:t=P:problem:mixed beam	!	!	!	!	!	!	!	!	!	!	!	!	!	!	!	!	!
8F\L	.	(4dd\	.	(4ff\	.	2.ryy	2.ryy	(4f\	.	2.ryy	2.ryy	2.ryy	2.ryy	2.r	.	2.r	.
8F\	.	.	.	.	.	.	.	.	.	.	.	.	.	.	.	.	.
8FF\	.	4cc\)	.	4ee-\)	.	.	.	4e-\)	.	.	.	.	.	.	.	.	.
8FF\	.	.	.	.	.	.	.	.	.	.	.	.	.	.	.	.	.
8BB-\	.	4b-`\	.	4dd\	.	.	.	4d\	-ſa	.	.	.	.	.	.	.	.
8BB-\J	.	.	.	.	.	.	.	.	.	.	.	.	.	.	.	.	.
=90	=90	=90	=90	=90	=90	=90	=90	=90	=90	=90	=90	=90	=90	=90	=90	=90	=90
8BB-/L	.	(4.ee-\	.	2gg\	.	2.ryy	2.ryy	(4.g\	Ro-	2.ryy	2.ryy	2.ryy	2.ryy	2.r	.	2.r	.
8BB-/	.	.	.	.	.	.	.	.	.	.	.	.	.	.	.	.	.
8BB-/	.	.	.	.	.	.	.	.	.	.	.	.	.	.	.	.	.
8BB-/	.	8b-\L)	.	.	.	.	.	8e-\)	.	.	.	.	.	.	.	.	.
8BB-/	.	(8gg\	.	8bb-\L	.	.	.	8b-\L	-sa	.	.	.	.	.	.	.	.
8BB-/J	.	8ee-\J)	.	8gg\J	.	.	.	8g\J	.	.	.	.	.	.	.	.	.
=91	=91	=91	=91	=91	=91	=91	=91	=91	=91	=91	=91	=91	=91	=91	=91	=91	=91
4B-\	.	(8ee-\L	.	8gg\L	.	2.ryy	2.ryy	8g\	My-	2.ryy	2.ryy	2.ryy	2.ryy	2.r	.	2.r	.
.	.	16dd\L	.	16ff\L	.	.	.	16f\LL	-ſti-	.	.	.	.	.	.	.	.
.	.	16ee-\JJ)	.	16gg\JJ	.	.	.	16g\JJ	.	.	.	.	.	.	.	.	.
4BB-/	.	8dd\L	.	8ff\L	.	.	.	4f\	-ca	.	.	.	.	.	.	.	.
.	.	8dd\J	.	8ff\J	.	.	.	.	.	.	.	.	.	.	.	.	.
4r	.	8dd\L	.	16bb-\LL	.	.	.	4r	.	.	.	.	.	.	.	.	.
.	.	.	.	16ff\	.	.	.	.	.	.	.	.	.	.	.	.	.
.	.	16cc\L	.	16ee-\	.	.	.	.	.	.	.	.	.	.	.	.	.
.	.	16b-\JJ	.	16dd\JJ	.	.	.	.	.	.	.	.	.	.	.	.	.
=92	=92	=92	=92	=92	=92	=92	=92	=92	=92	=92	=92	=92	=92	=92	=92	=92	=92
*tremolo	*	*	*	*	*	*	*	*	*	*	*	*	*	*	*	*	*
8F\L	.	8a/L	.	(4.cc\	.	2.ryy	2.ryy	4.c\	tur-	2.ryy	2.ryy	2.ryy	2.ryy	2.r	.	2.r	.
8F\	.	8a/	.	.	.	.	.	.	.	.	.	.	.	.	.	.	.
8F\	.	8a/	.	.	.	.	.	.	.	.	.	.	.	.	.	.	.
8F\	.	8a/	.	16dd\LL)	.	.	.	16d\LL	.	.	.	.	.	.	.	.	.
.	.	.	.	16ee-\JJ	.	.	.	16e-\JJ	.	.	.	.	.	.	.	.	.
8F\	.	8a/	.	8ff`\L	.	.	.	8f\L	.	.	.	.	.	.	.	.	.
8F\J	.	8a/J	.	8ee-`\J	.	.	.	8e-\J	.	.	.	.	.	.	.	.	.
=93	=93	=93	=93	=93	=93	=93	=93	=93	=93	=93	=93	=93	=93	=93	=93	=93	=93
8BB-/L	.	(4.b-\	.	(4.dd\	.	2.ryy	2.ryy	(4.d\	.	2.ryy	2.ryy	2.ryy	2.ryy	2.r	.	2.r	.
8BB-/	.	.	.	.	.	.	.	.	.	.	.	.	.	.	.	.	.
8BB-/	.	.	.	.	.	.	.	.	.	.	.	.	.	.	.	.	.
8BB-/	.	8cc\)	.	8ee-\)	.	.	.	8e-\)	.	.	.	.	.	.	.	.	.
8BB-/	.	4dd`\	.	4ff`\	.	.	.	4f\	-ris	.	.	.	.	.	.	.	.
8BB-/J	.	.	.	.	.	.	.	.	.	.	.	.	.	.	.	.	.
*Xtremolo	*	*	*	*	*	*	*	*	*	*	*	*	*	*	*	*	*
=94	=94	=94	=94	=94	=94	=94	=94	=94	=94	=94	=94	=94	=94	=94	=94	=94	=94
!LO:TX:a:t=P:problem:mixed beam	!	!	!	!	!	!	!	!	!	!	!	!	!	!	!	!	!
8E-\L	.	4cc\	.	8gg\L	.	2.ryy	2.ryy	8g\L	tur-	2.ryy	2.ryy	2.ryy	2.ryy	2.r	.	2.r	.
8E-\	.	.	.	16ff\L	.	.	.	16f\L	.	.	.	.	.	.	.	.	.
.	.	.	.	16ee-\JJ	.	.	.	16e-\JJ	.	.	.	.	.	.	.	.	.
8F\	.	4b-\	.	4dd\	.	.	.	4d\	-ris	.	.	.	.	.	.	.	.
8F\	.	.	.	.	.	.	.	.	.	.	.	.	.	.	.	.	.
8FF\	.	4a\	.	4cc\	.	.	.	4c\	Da-	.	.	.	.	.	.	.	.
8FF\J	.	.	.	.	.	.	.	.	.	.	.	.	.	.	.	.	.
=95	=95	=95	=95	=95	=95	=95	=95	=95	=95	=95	=95	=95	=95	=95	=95	=95	=95
4BB-/	.	(8.b-\L	.	8.dd\L	.	2.ryy	2.ryy	8d\	-vi-	2.ryy	2.ryy	2.ryy	2.ryy	2.r	.	2.r	.
.	.	.	.	.	.	.	.	8f\	-di-	.	.	.	.	.	.	.	.
.	.	16dd\Jk)	.	16ff\Jk	.	.	.	.	.	.	.	.	.	.	.	.	.
4B-\	.	8b-/L	.	8dd\L	.	.	.	4d\	-ca	.	.	.	.	.	.	.	.
.	.	24b-/L	.	24bb-\L	.	.	.	.	.	.	.	.	.	.	.	.	.
.	.	24a/	.	24aa\	.	.	.	.	.	.	.	.	.	.	.	.	.
.	.	24g/JJ	.	24gg\JJ	.	.	.	.	.	.	.	.	.	.	.	.	.
4r	.	8f`/L	.	8ff`\L	.	.	.	4r	.	.	.	.	.	.	.	.	.
.	.	8f`/J	.	8ff`\J	.	.	.	.	.	.	.	.	.	.	.	.	.
=96	=96	=96	=96	=96	=96	=96	=96	=96	=96	=96	=96	=96	=96	=96	=96	=96	=96
4A\	.	(8.f/L	.	(8.ff\L	.	2.ryy	2.ryy	8.f\L	o-	2.ryy	2.ryy	2.ryy	2.ryy	2.r	.	2.r	.
.	.	16e-/Jk)	.	16ee-\Jk)	.	.	.	16e-\Jk	.	.	.	.	.	.	.	.	.
4A\	.	8c`/L	.	8cc`\L	.	.	.	4c\	-ra	.	.	.	.	.	.	.	.
.	.	(32f/LL	.	(32ff\LL	.	.	.	.	.	.	.	.	.	.	.	.	.
.	.	32e-/	.	32ee-\	.	.	.	.	.	.	.	.	.	.	.	.	.
.	.	32f/	.	32ff\	.	.	.	.	.	.	.	.	.	.	.	.	.
.	.	32g/JJJ)	.	32gg\JJJ)	.	.	.	.	.	.	.	.	.	.	.	.	.
4r	.	8f`/L	.	8ff`\L	.	.	.	4r	.	.	.	.	.	.	.	.	.
.	.	8f`/J	.	8ff`\J	.	.	.	.	.	.	.	.	.	.	.	.	.
=97	=97	=97	=97	=97	=97	=97	=97	=97	=97	=97	=97	=97	=97	=97	=97	=97	=97
4B-\	.	(8.f/L	.	(8.ff\L	.	2.ryy	2.ryy	8.f\L	{o-	2.ryy	2.ryy	2.ryy	2.ryy	2.r	.	2.r	.
.	.	16e-/Jk)	.	16ee-\Jk)	.	.	.	16e-\Jk	.	.	.	.	.	.	.	.	.
4B-\	.	8d`/L	.	8dd`\L	.	.	.	4d\	-ra}	.	.	.	.	.	.	.	.
.	.	(32f/LL	.	(32ff\LL	.	.	.	.	.	.	.	.	.	.	.	.	.
.	.	32e-/	.	32ee-\	.	.	.	.	.	.	.	.	.	.	.	.	.
.	.	32f/	.	32ff\	.	.	.	.	.	.	.	.	.	.	.	.	.
.	.	32g/JJJ)	.	32gg\JJJ)	.	.	.	.	.	.	.	.	.	.	.	.	.
4r	.	8f/L	.	8ff`\L	.	.	.	4r	.	.	.	.	.	.	.	.	.
.	.	8f/J	.	8ff`\J	.	.	.	.	.	.	.	.	.	.	.	.	.
=98	=98	=98	=98	=98	=98	=98	=98	=98	=98	=98	=98	=98	=98	=98	=98	=98	=98
8E-\L	.	4g/	.	(16ee-\LL	.	2.ryy	2.ryy	16e-\LL	o-	2.ryy	2.ryy	2.ryy	2.ryy	2.r	.	2.r	.
.	.	.	.	16dd\	.	.	.	16d\	.	.	.	.	.	.	.	.	.
8E-\	.	.	.	16ee-\	.	.	.	16e-\	.	.	.	.	.	.	.	.	.
.	.	.	.	16ff\JJ)	.	.	.	16f\JJ	.	.	.	.	.	.	.	.	.
8E-\	.	4cc\	.	4ee-\	.	.	.	4e-\	-ra	.	.	.	.	.	.	.	.
8E-\	.	.	.	.	.	.	.	.	.	.	.	.	.	.	.	.	.
8En\	.	4b-\	.	4dd\	.	.	.	4d\	pro	.	.	.	.	.	.	.	.
8E\J	.	.	.	.	.	.	.	.	.	.	.	.	.	.	.	.	.
=99	=99	=99	=99	=99	=99	=99	=99	=99	=99	=99	=99	=99	=99	=99	=99	=99	=99
!LO:TX:a:t=P:problem:mixed beam	!	!	!	!	!	!	!	!	!	!	!	!	!	!	!	!	!
8F\L	.	8b-\L	.	8dd\L	.	2.ryy	2.ryy	8d\L	no-	2.ryy	2.ryy	2.ryy	2.ryy	2.r	.	2.r	.
8FF\J	.	16a\L	.	16cc\L	.	.	.	16c\L	.	.	.	.	.	.	.	.	.
.	.	16b-\JJ	.	16dd\JJ	.	.	.	16d\JJ	.	.	.	.	.	.	.	.	.
8F\L	.	4a/	.	4cc\	.	.	.	4c\	-bis	.	.	.	.	.	.	.	.
8E-X\	.	.	.	.	.	.	.	.	.	.	.	.	.	.	.	.	.
8D\	.	4r	.	4r	.	.	.	4r	.	.	.	.	.	.	.	.	.
8C\J	.	.	.	.	.	.	.	.	.	.	.	.	.	.	.	.	.
=100	=100	=100	=100	=100	=100	=100	=100	=100	=100	=100	=100	=100	=100	=100	=100	=100	=100
*tremolo	*	*tremolo	*	*tremolo	*	*	*	*	*	*	*	*	*	*	*	*	*
8BB-/L	.	8d/L	.	8f/L	.	2.ryy	2.ryy	2f\	Do-	2.ryy	2.ryy	2.ryy	2.ryy	2.r	.	2.r	.
8BB-/	.	8d/	.	8f/	.	.	.	.	.	.	.	.	.	.	.	.	.
8BB-/	.	8d/	.	8f/	.	.	.	.	.	.	.	.	.	.	.	.	.
8BB-/	.	8d/	.	8f/	.	.	.	.	.	.	.	.	.	.	.	.	.
8BB-/	.	8d/	.	8f/	.	.	.	16b-\LL	.	.	.	.	.	.	.	.	.
.	.	.	.	.	.	.	.	16a\JJ	.	.	.	.	.	.	.	.	.
8BB-/J	.	8d/J	.	8f/J	.	.	.	16g\LL	-mus	.	.	.	.	.	.	.	.
.	.	.	.	.	.	.	.	16f\JJ	.	.	.	.	.	.	.	.	.
=101	=101	=101	=101	=101	=101	=101	=101	=101	=101	=101	=101	=101	=101	=101	=101	=101	=101
8BB-/L	.	8e-/L	.	8g/L	.	2.ryy	2.ryy	8f\	au-	2.ryy	2.ryy	2.ryy	2.ryy	2.r	.	2.r	.
8BB-/	.	8e-/	.	8g/	.	.	.	8g\	-re-	.	.	.	.	.	.	.	.
8BB-/	.	8e-/	.	8g/	.	.	.	4g\	-a	.	.	.	.	.	.	.	.
8BB-/	.	8e-/	.	8g/	.	.	.	.	.	.	.	.	.	.	.	.	.
8BB-/	.	8e-/	.	8g/	.	.	.	4r	.	.	.	.	.	.	.	.	.
8BB-/J	.	8e-/J	.	8g/J	.	.	.	.	.	.	.	.	.	.	.	.	.
=102	=102	=102	=102	=102	=102	=102	=102	=102	=102	=102	=102	=102	=102	=102	=102	=102	=102
8BB-/L	.	8c/L	.	8a/L	.	2.ryy	2.ryy	4.a\	foe-	2.ryy	2.ryy	2.ryy	2.ryy	2.r	.	2.r	.
8BB-/	.	8c/	.	8a/	.	.	.	.	.	.	.	.	.	.	.	.	.
8BB-/	.	8c/	.	8a/	.	.	.	.	.	.	.	.	.	.	.	.	.
8BB-/	.	8c/	.	8a/	.	.	.	16b-\LL	.	.	.	.	.	.	.	.	.
.	.	.	.	.	.	.	.	16cc\JJ	.	.	.	.	.	.	.	.	.
8BB-/	.	8c/	.	8a/	.	.	.	16b-\LL	-de-	.	.	.	.	.	.	.	.
.	.	.	.	.	.	.	.	16a\JJ	.	.	.	.	.	.	.	.	.
8BB-/J	.	8c/J	.	8a/J	.	.	.	16g\LL	-ris	.	.	.	.	.	.	.	.
.	.	.	.	.	.	.	.	16a\JJ	.	.	.	.	.	.	.	.	.
=103	=103	=103	=103	=103	=103	=103	=103	=103	=103	=103	=103	=103	=103	=103	=103	=103	=103
8BB-/L	.	8d/L	.	8b-\L	.	2.ryy	2.ryy	8a\L	ar-	2.ryy	2.ryy	2.ryy	2.ryy	2.r	.	2.r	.
8BB-/	.	8d/	.	8b-\	.	.	.	8b-\J	.	.	.	.	.	.	.	.	.
8BB-/	.	8d/	.	8b-\	.	.	.	4b-\	-ca	.	.	.	.	.	.	.	.
8BB-/	.	8d/	.	8b-\	.	.	.	.	.	.	.	.	.	.	.	.	.
8BB-/	.	8d/	.	8b-\	.	.	.	4r	.	.	.	.	.	.	.	.	.
8BB-/J	.	8d/J	.	8b-\J	.	.	.	.	.	.	.	.	.	.	.	.	.
=104	=104	=104	=104	=104	=104	=104	=104	=104	=104	=104	=104	=104	=104	=104	=104	=104	=104
8F\L	.	8e-/L	.	8cc\L	.	2.ryy	2.ryy	2cc\	ia-	2.ryy	2.ryy	2.ryy	2.ryy	2.r	.	2.r	.
8F\	.	8e-/	.	8cc\	.	.	.	.	.	.	.	.	.	.	.	.	.
8F\	.	8e-/	.	8cc\	.	.	.	.	.	.	.	.	.	.	.	.	.
8F\	.	8e-/	.	8cc\	.	.	.	.	.	.	.	.	.	.	.	.	.
8F\	.	8e-/	.	8cc\	.	.	.	16dd\LL	.	.	.	.	.	.	.	.	.
.	.	.	.	.	.	.	.	16cc\	.	.	.	.	.	.	.	.	.
8F\J	.	8e-/J	.	8cc\J	.	.	.	16b-\	.	.	.	.	.	.	.	.	.
.	.	.	.	.	.	.	.	16a\JJ	.	.	.	.	.	.	.	.	.
=105	=105	=105	=105	=105	=105	=105	=105	=105	=105	=105	=105	=105	=105	=105	=105	=105	=105
8B-\L	.	8f/L	.	8dd\L	.	2.ryy	2.ryy	4.b-\	.	2.ryy	2.ryy	2.ryy	2.ryy	2.r	.	2.r	.
8B-\	.	8f/	.	8dd\	.	.	.	.	.	.	.	.	.	.	.	.	.
8B-\	.	8f/	.	8dd\	.	.	.	.	.	.	.	.	.	.	.	.	.
8B-\	.	8f/	.	8dd\	.	.	.	8cc\	-nu-	.	.	.	.	.	.	.	.
8B-\	.	8f/	.	8dd\	.	.	.	4dd\	-a	.	.	.	.	.	.	.	.
8B-\J	.	8f/J	.	8dd\J	.	.	.	.	.	.	.	.	.	.	.	.	.
*Xtremolo	*	*Xtremolo	*	*Xtremolo	*	*	*	*	*	*	*	*	*	*	*	*	*
=106	=106	=106	=106	=106	=106	=106	=106	=106	=106	=106	=106	=106	=106	=106	=106	=106	=106
!LO:TX:a:t=P:problem:mixed beam	!	!	!	!	!	!	!	!	!	!	!	!	!	!	!	!	!
8E-\L	.	8g/L	.	8ee-\L	.	2.ryy	2.ryy	8ee-\L	Cae-	2.ryy	2.ryy	2.ryy	2.ryy	2.r	.	2.r	.
8E-\	.	16f/L	.	16dd\L	.	.	.	16dd\L	.	.	.	.	.	.	.	.	.
.	.	16e-/JJ	.	16cc\JJ	.	.	.	16cc\JJ	.	.	.	.	.	.	.	.	.
8F\	.	4d/	.	4b-\	.	.	.	4b-\	.	.	.	.	.	.	.	.	.
8F\	.	.	.	.	.	.	.	.	.	.	.	.	.	.	.	.	.
8FF\	.	4c/	.	4a\	.	.	.	4a\	.	.	.	.	.	.	.	.	.
8FF\J	.	.	.	.	.	.	.	.	.	.	.	.	.	.	.	.	.
=107	=107	=107	=107	=107	=107	=107	=107	=107	=107	=107	=107	=107	=107	=107	=107	=107	=107
*tremolo	*	*	*	*	*	*	*	*	*	*	*	*	*	*	*	*	*
!LO:TX:a:t=P:problem:mixed beam	!	!	!	!	!	!	!	!	!	!	!	!	!	!	!	!	!
8BB-\L	.	8d/L	.	8b-\L	.	2.ryy	2.ryy	4b-\	-li	2.ryy	2.ryy	2.ryy	2.ryy	2.r	.	2.r	.
8BB-\	.	8f/	.	8dd\	.	.	.	.	.	.	.	.	.	.	.	.	.
8B-\	.	8f/	.	8dd\	.	.	.	16dd\LL	o-	.	.	.	.	.	.	.	.
.	.	.	.	.	.	.	.	16cc\	.	.	.	.	.	.	.	.	.
8B-\	.	8f/	.	8dd\	.	.	.	16b-\	.	.	.	.	.	.	.	.	.
.	.	.	.	.	.	.	.	16a\JJ	.	.	.	.	.	.	.	.	.
8B-\	.	8f/	.	8dd\	.	.	.	16b-\LL	.	.	.	.	.	.	.	.	.
.	.	.	.	.	.	.	.	16a\	.	.	.	.	.	.	.	.	.
8B-\J	.	8f/J	.	8dd\J	.	.	.	16g\	.	.	.	.	.	.	.	.	.
.	.	.	.	.	.	.	.	16f\JJ	.	.	.	.	.	.	.	.	.
=108	=108	=108	=108	=108	=108	=108	=108	=108	=108	=108	=108	=108	=108	=108	=108	=108	=108
*	*	*tremolo	*	*tremolo	*	*	*	*	*	*	*	*	*	*	*	*	*
8E-\L	.	8g/L	.	8b-\L	.	2.ryy	2.ryy	16g\LL	.	2.ryy	2.ryy	2.ryy	2.ryy	2.r	.	2.r	.
.	.	.	.	.	.	.	.	16e-\	.	.	.	.	.	.	.	.	.
8E-\	.	8g/	.	8b-\	.	.	.	16f\	.	.	.	.	.	.	.	.	.
.	.	.	.	.	.	.	.	16g\JJ	.	.	.	.	.	.	.	.	.
8E-\	.	8g/	.	8b-\	.	.	.	16a\LL	.	.	.	.	.	.	.	.	.
.	.	.	.	.	.	.	.	16b-\	.	.	.	.	.	.	.	.	.
8E-\	.	8g/	.	8b-\	.	.	.	16cc\	.	.	.	.	.	.	.	.	.
.	.	.	.	.	.	.	.	16dd\JJ	.	.	.	.	.	.	.	.	.
8E-\	.	8g/	.	8b-\	.	.	.	16ee-\LL	.	.	.	.	.	.	.	.	.
.	.	.	.	.	.	.	.	16dd\	.	.	.	.	.	.	.	.	.
8E-\J	.	8g/J	.	8b-\J	.	.	.	16cc\	.	.	.	.	.	.	.	.	.
.	.	.	.	.	.	.	.	16b-\JJ	.	.	.	.	.	.	.	.	.
=109	=109	=109	=109	=109	=109	=109	=109	=109	=109	=109	=109	=109	=109	=109	=109	=109	=109
8A\L	.	8e-/L	.	8cc\L	.	2.ryy	2.ryy	4cc\	.	2.ryy	2.ryy	2.ryy	2.ryy	2.r	.	2.r	.
8A\	.	8e-/	.	8cc\	.	.	.	.	.	.	.	.	.	.	.	.	.
8A\	.	8e-/	.	8cc\	.	.	.	16cc\LL	.	.	.	.	.	.	.	.	.
.	.	.	.	.	.	.	.	16b-\	.	.	.	.	.	.	.	.	.
8A\	.	8e-/	.	8cc\	.	.	.	16a\	.	.	.	.	.	.	.	.	.
.	.	.	.	.	.	.	.	16g\JJ	.	.	.	.	.	.	.	.	.
8A\	.	8e-/	.	8cc\	.	.	.	16a\LL	.	.	.	.	.	.	.	.	.
.	.	.	.	.	.	.	.	16g\	.	.	.	.	.	.	.	.	.
8A\J	.	8e-/J	.	8cc\J	.	.	.	16f\	.	.	.	.	.	.	.	.	.
.	.	.	.	.	.	.	.	16e-\JJ	.	.	.	.	.	.	.	.	.
=110	=110	=110	=110	=110	=110	=110	=110	=110	=110	=110	=110	=110	=110	=110	=110	=110	=110
8D\L	.	8f/L	.	8a/L	.	2.ryy	2.ryy	16f\LL	.	2.ryy	2.ryy	2.ryy	2.ryy	2.r	.	2.r	.
.	.	.	.	.	.	.	.	16d\	.	.	.	.	.	.	.	.	.
8D\	.	8f/	.	8a/	.	.	.	16e-\	.	.	.	.	.	.	.	.	.
.	.	.	.	.	.	.	.	16f\JJ	.	.	.	.	.	.	.	.	.
8D\	.	8f/	.	8a/	.	.	.	16g\LL	.	.	.	.	.	.	.	.	.
.	.	.	.	.	.	.	.	16a\	.	.	.	.	.	.	.	.	.
8D\	.	8f/	.	8a/	.	.	.	16b-\	.	.	.	.	.	.	.	.	.
.	.	.	.	.	.	.	.	16cc\JJ	.	.	.	.	.	.	.	.	.
8D\	.	8f/	.	8a/	.	.	.	16dd\LL	.	.	.	.	.	.	.	.	.
.	.	.	.	.	.	.	.	16cc\	.	.	.	.	.	.	.	.	.
8D\J	.	8f/J	.	8a/J	.	.	.	16b-\	.	.	.	.	.	.	.	.	.
.	.	.	.	.	.	.	.	16a\JJ	.	.	.	.	.	.	.	.	.
=111	=111	=111	=111	=111	=111	=111	=111	=111	=111	=111	=111	=111	=111	=111	=111	=111	=111
8G\L	.	8d/L	.	8b-/L	.	2.ryy	2.ryy	4b-\	.	2.ryy	2.ryy	2.ryy	2.ryy	2.r	.	2.r	.
8G\	.	8d/	.	8b-/	.	.	.	.	.	.	.	.	.	.	.	.	.
8G\	.	8d/	.	8b-/	.	.	.	16b-\LL	.	.	.	.	.	.	.	.	.
.	.	.	.	.	.	.	.	16a\	.	.	.	.	.	.	.	.	.
8G\	.	8d/	.	8b-/	.	.	.	16g\	.	.	.	.	.	.	.	.	.
.	.	.	.	.	.	.	.	16f\JJ	.	.	.	.	.	.	.	.	.
8G\	.	8d/	.	8b-/	.	.	.	16g\LL	.	.	.	.	.	.	.	.	.
.	.	.	.	.	.	.	.	16f\	.	.	.	.	.	.	.	.	.
8G\J	.	8d/J	.	8b-/J	.	.	.	16e-\	.	.	.	.	.	.	.	.	.
.	.	.	.	.	.	.	.	16d\JJ	.	.	.	.	.	.	.	.	.
=112	=112	=112	=112	=112	=112	=112	=112	=112	=112	=112	=112	=112	=112	=112	=112	=112	=112
8C/L	.	8e-/L	.	8g/L	.	2.ryy	2.ryy	16e-\LL	.	2.ryy	2.ryy	2.ryy	2.ryy	2.r	.	2.r	.
.	.	.	.	.	.	.	.	16c\	.	.	.	.	.	.	.	.	.
8C/	.	8e-/	.	8g/	.	.	.	16d\	.	.	.	.	.	.	.	.	.
.	.	.	.	.	.	.	.	16e-\JJ	.	.	.	.	.	.	.	.	.
8C/	.	8e-/	.	8g/	.	.	.	16f\LL	.	.	.	.	.	.	.	.	.
.	.	.	.	.	.	.	.	16g\	.	.	.	.	.	.	.	.	.
8C/	.	8e-/	.	8g/	.	.	.	16a\	.	.	.	.	.	.	.	.	.
.	.	.	.	.	.	.	.	16b-\JJ	.	.	.	.	.	.	.	.	.
8C/	.	8e-/	.	8g/	.	.	.	16cc\LL	.	.	.	.	.	.	.	.	.
.	.	.	.	.	.	.	.	16b-\	.	.	.	.	.	.	.	.	.
8C/J	.	8e-/J	.	8g/J	.	.	.	16a\	.	.	.	.	.	.	.	.	.
.	.	.	.	.	.	.	.	16g\JJ	.	.	.	.	.	.	.	.	.
=113	=113	=113	=113	=113	=113	=113	=113	=113	=113	=113	=113	=113	=113	=113	=113	=113	=113
8F\L	.	8c/L	.	8a/L	.	2.ryy	2.ryy	4a\	.	2.ryy	2.ryy	2.ryy	2.ryy	2.r	.	2.r	.
8F\	.	8c/	.	8a/	.	.	.	.	.	.	.	.	.	.	.	.	.
8F\	.	8c/	.	8a/	.	.	.	16a\LL	.	.	.	.	.	.	.	.	.
.	.	.	.	.	.	.	.	16g\	.	.	.	.	.	.	.	.	.
8F\	.	8c/	.	8a/	.	.	.	16f\	.	.	.	.	.	.	.	.	.
.	.	.	.	.	.	.	.	16e-\JJ	.	.	.	.	.	.	.	.	.
8F\	.	8c/	.	8a/	.	.	.	16f\LL	.	.	.	.	.	.	.	.	.
.	.	.	.	.	.	.	.	16e-\	.	.	.	.	.	.	.	.	.
8F\J	.	8c/J	.	8a/J	.	.	.	16d\	.	.	.	.	.	.	.	.	.
.	.	.	.	.	.	.	.	16c\JJ	.	.	.	.	.	.	.	.	.
*Xtremolo	*	*Xtremolo	*	*Xtremolo	*	*	*	*	*	*	*	*	*	*	*	*	*
=114	=114	=114	=114	=114	=114	=114	=114	=114	=114	=114	=114	=114	=114	=114	=114	=114	=114
4BB-/	.	4d/	.	4b-\	.	2.ryy	2.ryy	8d\L	.	2.ryy	2.ryy	2.ryy	2.ryy	2.r	.	2.r	.
.	.	.	.	.	.	.	.	16e-\L	.	.	.	.	.	.	.	.	.
.	.	.	.	.	.	.	.	16f\JJ	.	.	.	.	.	.	.	.	.
4r	.	4r	.	4r	.	.	.	16g\LL	.	.	.	.	.	.	.	.	.
.	.	.	.	.	.	.	.	16a\	.	.	.	.	.	.	.	.	.
.	.	.	.	.	.	.	.	16b-\	.	.	.	.	.	.	.	.	.
.	.	.	.	.	.	.	.	16cc\JJ	.	.	.	.	.	.	.	.	.
4D\	.	4b-\	.	4ff\	.	.	.	16dd\LL	.	.	.	.	.	.	.	.	.
.	.	.	.	.	.	.	.	16b-\	.	.	.	.	.	.	.	.	.
.	.	.	.	.	.	.	.	16a\	.	.	.	.	.	.	.	.	.
.	.	.	.	.	.	.	.	16b-\JJ	.	.	.	.	.	.	.	.	.
=115	=115	=115	=115	=115	=115	=115	=115	=115	=115	=115	=115	=115	=115	=115	=115	=115	=115
!	!	!	!	!	!	!	!	!	!	!	!	!	!	!	!	!	!
4E-\	.	2cc\	.	2ee-\	.	2.ryy	2.ryy	16cc\LL	.	2.ryy	2.ryy	2.ryy	2.ryy	2.r	.	2.r	.
.	.	.	.	.	.	.	.	16b-\	.	.	.	.	.	.	.	.	.
.	.	.	.	.	.	.	.	16cc\	.	.	.	.	.	.	.	.	.
.	.	.	.	.	.	.	.	16dd\JJ	.	.	.	.	.	.	.	.	.
4E-\	.	.	.	.	.	.	.	8ee-\L	-ra	.	.	.	.	.	.	.	.
.	.	.	.	.	.	.	.	8cc\J	.	.	.	.	.	.	.	.	.
4En\	.	4b-\	.	4dd\	.	.	.	8dd\L	pro	.	.	.	.	.	.	.	.
.	.	.	.	.	.	.	.	8b-\J	.	.	.	.	.	.	.	.	.
=116	=116	=116	=116	=116	=116	=116	=116	=116	=116	=116	=116	=116	=116	=116	=116	=116	=116
!	!	!	!	!	!	!	!	!	!	!	!	!	!	!LO:TX:a:t=S.	!LO:DY:a	!LO:TX:a:t=Soli	!LO:DY:a
4F\	.	8a/L	.	8cc/L	.	2.ryy	2.ryy	8a\L	no-	2.ryy	2.ryy	2.ryy	2.ryy	4.a\	p	4.cc\	p
.	.	8c/	.	8a/	.	.	.	16g\L	.	.	.	.	.	.	.	.	.
.	.	.	.	.	.	.	.	16f\JJ	.	.	.	.	.	.	.	.	.
4FF/	.	8c/	.	8a/	.	.	.	4f\	-bis	.	.	.	.	.	.	.	.
.	.	8c/	.	8a/	.	.	.	.	.	.	.	.	.	(16a\LL	.	(16cc\LL	.
.	.	.	.	.	.	.	.	.	.	.	.	.	.	16b-\JJ)	.	16dd\JJ)	.
4r	.	8c/	.	8a/	.	.	.	4r	.	.	.	.	.	8cc`\L	.	8ee-`\L	.
.	.	8c/J	.	8a/J	.	.	.	.	.	.	.	.	.	8cc`\J	.	8ee-`\J	.
=117	=117	=117	=117	=117	=117	=117	=117	=117	=117	=117	=117	=117	=117	=117	=117	=117	=117
4F\	.	8c/L	.	8a/L	.	2.ryy	2.ryy	4.a\	ſtel-	2.ryy	2.ryy	2.ryy	2.ryy	(8cc\L	.	(8ee-\L	.
.	.	8c/	.	8a/	.	.	.	.	.	.	.	.	.	8a\J)	.	8cc\J)	.
4FF/	.	8c/	.	8a/	.	.	.	.	.	.	.	.	.	4a`\	.	4cc`\	.
.	.	8c/	.	8a/	.	.	.	8f\	-la	.	.	.	.	.	.	.	.
4r	.	8c/	.	8a/	.	.	.	8a\	Ma-	.	.	.	.	4r	.	4r	.
.	.	8c/J	.	8a/J	.	.	.	8cc\	-tu-	.	.	.	.	.	.	.	.
=118	=118	=118	=118	=118	=118	=118	=118	=118	=118	=118	=118	=118	=118	=118	=118	=118	=118
4B-\	.	8d/L	.	8f/L	.	2.ryy	2.ryy	(16cc\LL	-ti-	2.ryy	2.ryy	2.ryy	2.ryy	4.b-`\	.	4.dd\	.
.	.	.	.	.	.	.	.	16b-\)	.	.	.	.	.	.	.	.	.
.	.	8d/	.	8f/	.	.	.	(16a\	.	.	.	.	.	.	.	.	.
.	.	.	.	.	.	.	.	16b-\JJ)	.	.	.	.	.	.	.	.	.
4BB-/	.	8d/	.	8f/	.	.	.	4b-\	-na	.	.	.	.	.	.	.	.
.	.	8d/	.	8f/	.	.	.	.	.	.	.	.	.	(16b-\LL	.	(16dd\LL	.
.	.	.	.	.	.	.	.	.	.	.	.	.	.	16cc\JJ)	.	16ee-\JJ)	.
4r	.	8d/	.	8f/	.	.	.	4r	.	.	.	.	.	8dd`\L	.	8ff`\L	.
.	.	8d/J	.	8f/J	.	.	.	.	.	.	.	.	.	8dd`\J	.	8ff`\J	.
=119	=119	=119	=119	=119	=119	=119	=119	=119	=119	=119	=119	=119	=119	=119	=119	=119	=119
4B-\	.	8d/L	.	8f/L	.	2.ryy	2.ryy	4.b-\	{ſtel-	2.ryy	2.ryy	2.ryy	2.ryy	(8dd\L	.	(8ff\L	.
.	.	8d/	.	8f/	.	.	.	.	.	.	.	.	.	8b-\J)	.	8dd\J)	.
4BB-/	.	8d/	.	8f/	.	.	.	.	.	.	.	.	.	4b-`\	.	4dd`\	.
.	.	8d/	.	8f/	.	.	.	8f\	-la	.	.	.	.	.	.	.	.
4r	.	8d/	.	8f/	.	.	.	8b-\	Ma-	.	.	.	.	4r	.	4r	.
.	.	8d/J	.	8f/J	.	.	.	8dd\	-tu-	.	.	.	.	.	.	.	.
=120	=120	=120	=120	=120	=120	=120	=120	=120	=120	=120	=120	=120	=120	=120	=120	=120	=120
4F\	.	8c/L	.	8a/L	.	2.ryy	2.ryy	16dd\LL	-ti-	2.ryy	2.ryy	2.ryy	2.ryy	4.cc`\	.	4.ee-`\	.
.	.	.	.	.	.	.	.	16cc\	.	.	.	.	.	.	.	.	.
.	.	8c/	.	8a/	.	.	.	16b-\	.	.	.	.	.	.	.	.	.
.	.	.	.	.	.	.	.	16cc\JJ	.	.	.	.	.	.	.	.	.
4FF/	.	8c/	.	8a/	.	.	.	4cc\	-na}	.	.	.	.	.	.	.	.
.	.	8c/	.	8a/	.	.	.	.	.	.	.	.	.	(16a\LL	.	(16cc\LL	.
.	.	.	.	.	.	.	.	.	.	.	.	.	.	16b-\JJ)	.	16dd\JJ)	.
4r	.	8c/	.	8a/	.	.	.	4r	.	.	.	.	.	8cc`\L	.	8ee-`\L	.
.	.	8c/J	.	8a/J	.	.	.	.	.	.	.	.	.	8cc`\J	.	8ee-`\J	.
=121	=121	=121	=121	=121	=121	=121	=121	=121	=121	=121	=121	=121	=121	=121	=121	=121	=121
4F\	.	8c/L	.	8a/L	.	2.ryy	2.ryy	4cc\	o-	2.ryy	2.ryy	2.ryy	2.ryy	(8cc\L	.	(8ee-\L	.
.	.	8c/	.	8a/	.	.	.	.	.	.	.	.	.	8a\J)	.	8cc\J)	.
4FF/	.	8c/	.	8a/	.	.	.	8f\L	.	.	.	.	.	4a`\	.	4cc`\	.
.	.	8c/	.	8a/	.	.	.	8a\	.	.	.	.	.	.	.	.	.
4r	.	8c/	.	8a/	.	.	.	8cc\	.	.	.	.	.	4r	.	4r	.
.	.	8c/J	.	8a/J	.	.	.	8ee-\J	.	.	.	.	.	.	.	.	.
*	*	*	*	*Xtremolo	*	*	*	*	*	*	*	*	*	*	*	*	*
*	*	*Xtremolo	*	*	*	*	*	*	*	*	*	*	*	*	*	*	*
=122	=122	=122	=122	=122	=122	=122	=122	=122	=122	=122	=122	=122	=122	=122	=122	=122	=122
4BB-/	.	4d/	.	4b-\	.	2.ryy	2.ryy	8dd\L	.	2.ryy	2.ryy	2.ryy	2.ryy	4b-\	.	4dd\	.
.	.	.	.	.	.	.	.	16cc\L	.	.	.	.	.	.	.	.	.
.	.	.	.	.	.	.	.	16b-\JJ	.	.	.	.	.	.	.	.	.
4C/	.	4e-/	.	4a\	.	.	.	8a\L	.	.	.	.	.	4a\	.	4ee-\	.
.	.	.	.	.	.	.	.	16g\L	.	.	.	.	.	.	.	.	.
.	.	.	.	.	.	.	.	16a\JJ	.	.	.	.	.	.	.	.	.
4D/	.	4f/	.	4b-\	.	.	.	8b-\L	.	.	.	.	.	4b-\	.	4ff\	.
.	.	.	.	.	.	.	.	16a\L	.	.	.	.	.	.	.	.	.
.	.	.	.	.	.	.	.	16b-\JJ	.	.	.	.	.	.	.	.	.
=123	=123	=123	=123	=123	=123	=123	=123	=123	=123	=123	=123	=123	=123	=123	=123	=123	=123
4E-\	.	8g/L	.	8cc\L	.	2.ryy	2.ryy	16cc\LL	-ra	2.ryy	2.ryy	2.ryy	2.ryy	4cc\	.	8gg\L	.
.	.	.	.	.	.	.	.	16ee-\JJ	.	.	.	.	.	.	.	.	.
.	.	8e-/J	.	16ee-\L	.	.	.	16dd\LL	pro	.	.	.	.	.	.	16ff\L	.
.	.	.	.	16cc\JJ	.	.	.	16cc\JJ	.	.	.	.	.	.	.	16ee-\JJ	.
4F\	.	4d/	.	4b-\	.	.	.	4b-\	no-	.	.	.	.	4b-\	.	4dd\	.
4FF/	.	4c/	.	4a\	.	.	.	4a\	.	.	.	.	.	4a\	.	4cc\	.
=124	=124	=124	=124	=124	=124	=124	=124	=124	=124	=124	=124	=124	=124	=124	=124	=124	=124
!	!	!	!	!	!	!	!	!	!	!	!	!	!	!LO:TX:a:t=Soli	!	!	!
4BB-/	.	4d/	.	4b-\	.	2.ryy	2.ryy	4b-\	-bis	2.ryy	2.ryy	2.ryy	2.ryy	16F/LL	.	(8.dd\L	.
.	.	.	.	.	.	.	.	.	.	.	.	.	.	16B-/	.	.	.
.	.	.	.	.	.	.	.	.	.	.	.	.	.	16d/	.	.	.
.	.	.	.	.	.	.	.	.	.	.	.	.	.	16B-/JJ	.	16ff\Jk)	.
4r	.	4r	.	4r	.	.	.	4r	.	.	.	.	.	16F/LL	.	8b-`\L	.
.	.	.	.	.	.	.	.	.	.	.	.	.	.	16B-/	.	.	.
.	.	.	.	.	.	.	.	.	.	.	.	.	.	16d/	.	8b-`\	.
.	.	.	.	.	.	.	.	.	.	.	.	.	.	16B-/JJ	.	.	.
4r	.	4r	.	4r	.	.	.	4r	.	.	.	.	.	16F/LL	.	8dd`\	.
.	.	.	.	.	.	.	.	.	.	.	.	.	.	16B-/	.	.	.
.	.	.	.	.	.	.	.	.	.	.	.	.	.	16d/	.	8dd`\J	.
.	.	.	.	.	.	.	.	.	.	.	.	.	.	16B-/JJ	.	.	.
=125	=125	=125	=125	=125	=125	=125	=125	=125	=125	=125	=125	=125	=125	=125	=125	=125	=125
2.r	.	2.r	.	2.r	.	2.ryy	2.ryy	2.r	.	2.ryy	2.ryy	2.ryy	2.ryy	16F/LL	.	(16cc\LL	.
.	.	.	.	.	.	.	.	.	.	.	.	.	.	16A/	.	16b-\	.
.	.	.	.	.	.	.	.	.	.	.	.	.	.	16c/	.	16cc\	.
.	.	.	.	.	.	.	.	.	.	.	.	.	.	16A/JJ	.	16dd\JJ)	.
.	.	.	.	.	.	.	.	.	.	.	.	.	.	16F/LL	.	(8.cc\L	.
.	.	.	.	.	.	.	.	.	.	.	.	.	.	16A/	.	.	.
.	.	.	.	.	.	.	.	.	.	.	.	.	.	16c/	.	.	.
.	.	.	.	.	.	.	.	.	.	.	.	.	.	16A/JJ	.	16a\K)	.
.	.	.	.	.	.	.	.	.	.	.	.	.	.	16F/LL	.	(8.ee-\	.
.	.	.	.	.	.	.	.	.	.	.	.	.	.	16A/	.	.	.
.	.	.	.	.	.	.	.	.	.	.	.	.	.	16c/	.	.	.
.	.	.	.	.	.	.	.	.	.	.	.	.	.	16A/JJ	.	16cc\Jk)	.
=126	=126	=126	=126	=126	=126	=126	=126	=126	=126	=126	=126	=126	=126	=126	=126	=126	=126
2.r	.	2.r	.	2.r	.	2.ryy	2.ryy	2.r	.	2.ryy	2.ryy	2.ryy	2.ryy	16F/LL	.	(8.dd\L	.
.	.	.	.	.	.	.	.	.	.	.	.	.	.	16B-/	.	.	.
.	.	.	.	.	.	.	.	.	.	.	.	.	.	16d/	.	.	.
.	.	.	.	.	.	.	.	.	.	.	.	.	.	16B-/JJ	.	16ff\Jk)	.
.	.	.	.	.	.	.	.	.	.	.	.	.	.	16F/LL	.	8b-`\L	.
.	.	.	.	.	.	.	.	.	.	.	.	.	.	16B-/	.	.	.
.	.	.	.	.	.	.	.	.	.	.	.	.	.	16d/	.	8b-`\	.
.	.	.	.	.	.	.	.	.	.	.	.	.	.	16B-/JJ	.	.	.
.	.	.	.	.	.	.	.	.	.	.	.	.	.	16F/LL	.	8dd`\	.
.	.	.	.	.	.	.	.	.	.	.	.	.	.	16B-/	.	.	.
.	.	.	.	.	.	.	.	.	.	.	.	.	.	16d/	.	8dd`\J	.
.	.	.	.	.	.	.	.	.	.	.	.	.	.	16B-/JJ	.	.	.
=127	=127	=127	=127	=127	=127	=127	=127	=127	=127	=127	=127	=127	=127	=127	=127	=127	=127
!LO:TX:b:t=Verte	!	!	!	!LO:TX:b:t=Verte	!	!	!	!	!	!	!	!	!	!	!	!	!
2.r	.	2.r	.	2.r	.	2.ryy	2.ryy	2.r	.	2.ryy	2.ryy	2.ryy	2.ryy	16F/LL	.	(16cc\LL	.
.	.	.	.	.	.	.	.	.	.	.	.	.	.	16A/	.	16b-\	.
.	.	.	.	.	.	.	.	.	.	.	.	.	.	16c/	.	16cc\	.
.	.	.	.	.	.	.	.	.	.	.	.	.	.	16A/JJ	.	16dd\JJ)	.
.	.	.	.	.	.	.	.	.	.	.	.	.	.	16F/LL	.	(8.cc\L	.
.	.	.	.	.	.	.	.	.	.	.	.	.	.	16A/	.	.	.
.	.	.	.	.	.	.	.	.	.	.	.	.	.	16c/	.	.	.
.	.	.	.	.	.	.	.	.	.	.	.	.	.	16A/JJ	.	16a\K)	.
.	.	.	.	.	.	.	.	.	.	.	.	.	.	16F/LL	.	(8.ee-\	.
.	.	.	.	.	.	.	.	.	.	.	.	.	.	16A/	.	.	.
.	.	.	.	.	.	.	.	.	.	.	.	.	.	16c/	.	.	.
.	.	.	.	.	.	.	.	.	.	.	.	.	.	16A/JJ	.	16cc\Jk)	.
=128	=128	=128	=128	=128	=128	=128	=128	=128	=128	=128	=128	=128	=128	=128	=128	=128	=128
!	!	!	!LO:DY:a	!	!LO:DY:a	!	!	!	!	!	!	!	!	!LO:TX:a:t=P:problem:mixed beam	!	!	!
4r	.	4r	p	4r	p	2.ryy	2.ryy	2.r	.	2.ryy	2.ryy	2.ryy	2.ryy	8F\L	.	(8.dd\L	.
.	.	.	.	.	.	.	.	.	.	.	.	.	.	16b-\L	.	.	.
.	.	.	.	.	.	.	.	.	.	.	.	.	.	16cc\JJ	.	16ee-\Jk)	.
4BB-/	.	4d/	.	4f/	.	.	.	.	.	.	.	.	.	8dd\L	.	8ff`\L	.
.	.	.	.	.	.	.	.	.	.	.	.	.	.	8dd\	.	8ff`\	.
4E-\	.	4e-/	.	4g/	.	.	.	.	.	.	.	.	.	8gg\	.	8bb-`\	.
.	.	.	.	.	.	.	.	.	.	.	.	.	.	8ee-\J	.	8gg`\J	.
=129	=129	=129	=129	=129	=129	=129	=129	=129	=129	=129	=129	=129	=129	=129	=129	=129	=129
4F\	.	4B-/	.	4d/	.	2.ryy	2.ryy	2.r	.	2.ryy	2.ryy	2.ryy	2.ryy	8.dd\L	.	(8.ff\L	.
.	.	.	.	.	.	.	.	.	.	.	.	.	.	16ee-\Jk	.	16gg\Jk)	.
4FF/	.	4A/	.	4c/	.	.	.	.	.	.	.	.	.	16dd\LL	.	(16ff\LL	.
.	.	.	.	.	.	.	.	.	.	.	.	.	.	16cc\	.	16ee-\	.
.	.	.	.	.	.	.	.	.	.	.	.	.	.	16b-\	.	16dd\	.
.	.	.	.	.	.	.	.	.	.	.	.	.	.	16cc\JJ	.	16ee-\JJ)	.
4BB-/	.	4B-/	.	4d/	.	.	.	.	.	.	.	.	.	8b-\L	.	(8dd\L	.
.	.	.	.	.	.	.	.	.	.	.	.	.	.	8dd\J	.	8ff\J)	.
=130	=130	=130	=130	=130	=130	=130	=130	=130	=130	=130	=130	=130	=130	=130	=130	=130	=130
4E-\	.	4c/	.	4e-/	.	2.ryy	2.ryy	2.r	.	2.ryy	2.ryy	2.ryy	2.ryy	8ee-\L	.	8gg\L	.
.	.	.	.	.	.	.	.	.	.	.	.	.	.	16dd\L	.	16ff\L	.
.	.	.	.	.	.	.	.	.	.	.	.	.	.	16cc\JJ	.	16ee-\JJ	.
4F\	.	4B-/	.	4d/	.	.	.	.	.	.	.	.	.	4b-\	.	4dd\	.
4FF/	.	4A/	.	4c/	.	.	.	.	.	.	.	.	.	4a\	.	4cc\	.
=131	=131	=131	=131	=131	=131	=131	=131	=131	=131	=131	=131	=131	=131	=131	=131	=131	=131
!LO:TX:a:t=P:problem:mixed beam	!LO:DY:a	!	!LO:DY:a	!LO:TX:a:t=P:problem:mixed beam	!LO:DY:a	!	!	!	!	!	!	!	!	!	!	!	!LO:DY:a
8BB-\L	f	8B-/L	f	8d\L	f	2.ryy	2.ryy	2.r	.	2.ryy	2.ryy	2.ryy	2.ryy	4b-\	.	4dd\	f
8B-\	.	16d/L	.	16b-\L	.	.	.	.	.	.	.	.	.	.	.	.	.
.	.	16e-/JJ	.	16cc\JJ	.	.	.	.	.	.	.	.	.	.	.	.	.
!	!	!LO:TX:a:t=P:problem:mixed beam	!	!	!	!	!	!	!	!	!	!	!	!	!	!	!
8B-\	.	8f\L	.	8dd\L	.	.	.	.	.	.	.	.	.	4b-\	.	4dd\	.
8B-\	.	8f\	.	8dd\J	.	.	.	.	.	.	.	.	.	.	.	.	.
!	!	!	!	!	!	!	!	!	!	!	!	!	!	!	!LO:DY:a	!	!
8B-\	.	8f\	.	16dd\LL	.	.	.	.	.	.	.	.	.	4r	f	4r	.
.	.	.	.	16ee-\	.	.	.	.	.	.	.	.	.	.	.	.	.
8B-\J	.	8dd\J	.	16ff\	.	.	.	.	.	.	.	.	.	.	.	.	.
.	.	.	.	16gg\JJ	.	.	.	.	.	.	.	.	.	.	.	.	.
=132	=132	=132	=132	=132	=132	=132	=132	=132	=132	=132	=132	=132	=132	=132	=132	=132	=132
!LO:TX:a:t=P:problem:mixed beam	!	!	!	!	!	!	!	!	!	!	!	!	!	!	!	!	!
8A\L	.	4cc\	.	8.ff\L	.	2.ryy	2.ryy	2.r	.	2.ryy	2.ryy	2.ryy	2.ryy	4r	.	4r	.
8A\	.	.	.	.	.	.	.	.	.	.	.	.	.	.	.	.	.
.	.	.	.	16ee-\Jk	.	.	.	.	.	.	.	.	.	.	.	.	.
8B-\	.	8b-\L	.	16dd\LL	.	.	.	.	.	.	.	.	.	4r	.	4r	.
.	.	.	.	16ff\	.	.	.	.	.	.	.	.	.	.	.	.	.
8B-\	.	16gg\L	.	16bb-\	.	.	.	.	.	.	.	.	.	.	.	.	.
.	.	16ff\JJ	.	16aa\JJ	.	.	.	.	.	.	.	.	.	.	.	.	.
8BB-\	.	16ee-\LL	.	16gg\LL	.	.	.	.	.	.	.	.	.	4dd\	.	4ff\	.
.	.	16dd\	.	16ff\	.	.	.	.	.	.	.	.	.	.	.	.	.
8BB-\J	.	16cc\	.	16ee-\	.	.	.	.	.	.	.	.	.	.	.	.	.
.	.	16b-\JJ	.	16dd\JJ	.	.	.	.	.	.	.	.	.	.	.	.	.
=133	=133	=133	=133	=133	=133	=133	=133	=133	=133	=133	=133	=133	=133	=133	=133	=133	=133
!LO:TX:a:t=P:problem:mixed beam	!	!	!	!	!	!	!	!	!	!	!	!	!	!	!	!	!
8E-\L	.	8g/L	.	16cc\LL	.	2.ryy	2.ryy	2.r	.	2.ryy	2.ryy	2.ryy	2.ryy	4cc\	.	8gg\L	.
.	.	.	.	16dd\	.	.	.	.	.	.	.	.	.	.	.	.	.
8E-\	.	8e-/J	.	16ee-\	.	.	.	.	.	.	.	.	.	.	.	8ee-\J	.
.	.	.	.	16cc\JJ	.	.	.	.	.	.	.	.	.	.	.	.	.
8F\	.	4d/	.	4b-\	.	.	.	.	.	.	.	.	.	4b-\	.	4dd\	.
8F\	.	.	.	.	.	.	.	.	.	.	.	.	.	.	.	.	.
!	!	!	!	!	!	!	!	!	!	!	!	!	!	!	!	!LO:TX:a:t=Soli	!
8FF\	.	4c/	.	4a\	.	.	.	.	.	.	.	.	.	4a\	.	4cc\	.
8FF\J	.	.	.	.	.	.	.	.	.	.	.	.	.	.	.	.	.
=134	=134	=134	=134	=134	=134	=134	=134	=134	=134	=134	=134	=134	=134	=134	=134	=134	=134
!	!LO:DY:a	!	!LO:DY:a	!	!LO:DY:a	!	!	!	!	!	!	!	!	!LO:TX:a:t=Soli	!	!	!
4BB-/	p	(8.B-/L	p	(8.d/L	p	2.ryy	2.ryy	2.r	.	2.ryy	2.ryy	2.ryy	2.ryy	(8.b-\L	.	(8.dd\L	.
.	.	16d/K)	.	16f/K)	.	.	.	.	.	.	.	.	.	16dd\K)	.	16ff\K)	.
4B-\	.	(8.B-/	.	(8.d/	.	.	.	.	.	.	.	.	.	(8.b-\	.	(8.dd\	.
.	.	16d/Jk)	.	16f/Jk)	.	.	.	.	.	.	.	.	.	16dd\Jk)	.	16ff\Jk)	.
4F\	.	(16d/LL	.	(16f/LL	.	.	.	.	.	.	.	.	.	(16dd\LL	.	(16ff\LL	.
.	.	16c/)	.	16e-/)	.	.	.	.	.	.	.	.	.	16cc\)	.	16ee-\)	.
.	.	(16B-/	.	(16d/	.	.	.	.	.	.	.	.	.	(16b-\	.	(16dd\	.
.	.	16A/JJ)	.	16c/JJ)	.	.	.	.	.	.	.	.	.	16a\JJ)	.	16cc\JJ)	.
=135	=135	=135	=135	=135	=135	=135	=135	=135	=135	=135	=135	=135	=135	=135	=135	=135	=135
4BB-/	.	(8.B-/L	.	(8.d/L	.	2.ryy	2.ryy	2.r	.	2.ryy	2.ryy	2.ryy	2.ryy	(8.b-\L	.	(8.dd\L	.
.	.	16d/K)	.	16f/K)	.	.	.	.	.	.	.	.	.	16dd\K)	.	16ff\K)	.
4B-\	.	(8.B-/	.	(8.d/	.	.	.	.	.	.	.	.	.	(8.b-\	.	(8.dd\	.
.	.	16d/Jk)	.	16f/Jk)	.	.	.	.	.	.	.	.	.	16dd\Jk)	.	16ff\Jk)	.
4F\	.	(16d/LL	.	(16f/LL	.	.	.	.	.	.	.	.	.	(16dd\LL	.	(16ff\LL	.
.	.	16c/)	.	16e-/)	.	.	.	.	.	.	.	.	.	16cc\)	.	16ee-\)	.
.	.	(16B-/	.	(16d/	.	.	.	.	.	.	.	.	.	(16b-\	.	(16dd\	.
.	.	16A/JJ)	.	16c/JJ)	.	.	.	.	.	.	.	.	.	16a\JJ)	.	16cc\JJ)	.
=136	=136	=136	=136	=136	=136	=136	=136	=136	=136	=136	=136	=136	=136	=136	=136	=136	=136
4BB-/	.	(4A/	.	(4c/	.	2.ryy	2.ryy	2.r	.	2.ryy	2.ryy	2.ryy	2.ryy	(4a\	.	(4cc\	.
4BB-/	.	4B-/)	.	4d/)	.	.	.	.	.	.	.	.	.	4b-\)	.	4dd\)	.
4r	.	4r	.	4r	.	.	.	.	.	.	.	.	.	4r	.	4r	.
==	==	==	==	==	==	==	==	==	==	==	==	==	==	==	==	==	==
*-	*-	*-	*-	*-	*-	*-	*-	*-	*-	*-	*-	*-	*-	*-	*-	*-	*-
!!title: @{OTL};
!!!RDF**kern: > = above
!!!RDF**kern: < = below
!!!RDF**dynam: > = "dim", fontstyle= "bold-italic"
!!!RDF**dynam: < = "cresc", fontstyle= "bold-italic"
!!!RDF**kern: | = vertical stroke
!!!RDF**kern: N = linked
!!!RDF**kern: i = editorial accidental
!!!RDF**kern: l = terminal long
!!!ENC: Andrzej Kubiczek
!!!END: 2020-07-13
!!!EED: Wojciech Jakubiak-Danek
!!!EST: 2021-11-24
!!!URL-scan: http://repozytorium.nifc.pl/skany/pl-cz-nut--iii-108
!!!ONB-nifc: UWAGA: części Litanii: Kyrie, Sancta Maria, Virgo prudentissima, Speculum iustitiae, Salus infirmorum, Regina angelorum, Agnus Dei
